**kern	**dynam	**kern	**dynam	**kern	**dynam	**kern	**dynam	**mxhm	**kern	**kern	**kern
=1	=1	=1	=1	=1	=1	=1	=1	=1	=1	=1	=1
4A#'	f	4e#' 4a#	f	4cc#' 4ee# 4aa#	f	4a#' 4ee# 4aa#	f	i	=1	a#	M6/8
8r	f	8r	f	8r	f	8r	f	i	=1	a#	M6/8
4G##X'	f	4e#' 4b#	f	4ee#' 4bb#	f	4ee#' 4eee#	f	V6	=1	a#	M6/8
8r	f	8r	f	8r	f	8r	f	V6	=1	a#	M6/8
=2!|:	=2!|:	=2!|:	=2!|:	=2!|:	=2!|:	=2!|:	=2!|:	=2!|:	=2!|:	=2!|:	=2!|:
2.r	f	2.r	f	2.r	f	2.r	f	V6	=1	a#	M6/8
=3	=3	=3	=3	=3	=3	=3	=3	=3	=3	=3	=3
(8A#L	pp	2.r	f	4r	f	(8a#L	pp	i	=3	a#	M6/8
8E#	pp	2.r	f	4r	f	8e#	pp	i	=3	a#	M6/8
8c#J	pp	2.r	f	8r	f	8cc#J	pp	i	=3	a#	M6/8
[4.e#)	pp	2.r	f	(4.e#	pp	[4.ee#)	pp	i	=3	a#	M6/8
=4	=4	=4	=4	=4	=4	=4	=4	=4	=4	=4	=4
4e#]	pp	(4.B#	pp	4.d#	pp	(16ee#LL]	pp	V7	=4	a#	M6/8
4e#]	pp	(4.B#	pp	4.d#	pp	16ff#	pp	V7	=4	a#	M6/8
4e#]	pp	(4.B#	pp	4.d#	pp	16dd#	pp	V7	=4	a#	M6/8
4e#]	pp	(4.B#	pp	4.d#	pp	16b#	pp	V7	=4	a#	M6/8
8E#	pp	(4.B#	pp	4.d#	pp	16g##X	pp	V7	=4	a#	M6/8
8E#	pp	(4.B#	pp	4.d#	pp	16e#JJ	pp	V7	=4	a#	M6/8
4AA#'	pp	4A#')	pp	4c#')	pp	4a#')	pp	i\\	=4	a#	M6/8
8r	pp	8r	pp	8r	pp	8r	pp	i\\	=4	a#	M6/8
=5	=5	=5	=5	=5	=5	=5	=5	=5	=5	=5	=5
2.r	pp	2.r	pp	2.r	pp	2.r	pp	i\\	=5	a#	M6/8
=6	=6	=6	=6	=6	=6	=6	=6	=6	=6	=6	=6
(8BBL	pp pp	(8BL	pp	4r	pp	(8bL	pp	.bII	=6	a#	M6/8
8FF#	pp pp	8F#	pp	4r	pp	8f#	pp	.bII	=6	a#	M6/8
8D#J	pp pp	8d#J	pp	8r	pp	8dd#J	pp	.bII	=6	a#	M6/8
[4.F#)	pp pp	(4.f#)	pp	(4.f#	pp	[4.ff#)	pp	.bII	=6	a#	M6/8
=7	=7	=7	=7	=7	=7	=7	=7	=7	=7	=7	=7
4F#]	pp pp	4.c#	pp	4.eX	pp	(16ff#LL]	pp	V7/bII	=7	a#	M6/8
4F#]	pp pp	4.c#	pp	4.eX	pp	16gg#	pp	V7/bII	=7	a#	M6/8
4F#]	pp pp	4.c#	pp	4.eX	pp	16eeX	pp	V7/bII	=7	a#	M6/8
4F#]	pp pp	4.c#	pp	4.eX	pp	16cc#	pp	V7/bII	=7	a#	M6/8
(8F#	pp pp	4.c#	pp	4.eX	pp	16a#	pp	V7/bII	=7	a#	M6/8
(8F#	pp pp	4.c#	pp	4.eX	pp	16f#JJ	pp	V7/bII	=7	a#	M6/8
4BB')	pp pp	4B')	pp	4d#')	pp	4b')	pp	.bII	=7	a#	M6/8
8r	pp pp	8r	pp	8r	pp	8r	pp	.bII	=7	a#	M6/8
=8	=8	=8	=8	=8	=8	=8	=8	=8	=8	=8	=8
2.r	pp pp	2.r	pp	2.r	pp	2.r	pp	.bII	=8	a#	M6/8
=9	=9	=9	=9	=9	=9	=9	=9	=9	=9	=9	=9
2.r	pp pp	(8b#XL	pp	2.r	pp	4r	pp	viio7	=9	a#	M6/8
2.r	pp pp	8g##X	pp	2.r	pp	4r	pp	viio7	=9	a#	M6/8
2.r	pp pp	[8dd#J)	sf	2.r	pp	8r	pp	viio7	=9	a#	M6/8
2.r	pp pp	4.dd#_	>]	2.r	pp	(8gg##XL	pp	viio7	=9	a#	M6/8
2.r	pp pp	4.dd#_	>]	2.r	pp	8ff#	pp	viio7	=9	a#	M6/8
2.r	pp pp	4.dd#_	>]	2.r	pp	[8bb#XJ)	sf	viio7	=9	a#	M6/8
=10	=10	=10	=10	=10	=10	=10	=10	=10	=10	=10	=10
2.g##X	p	2.dd#]	p	(4.ff#	p	2.bb#]	>]	V65	=10	a#	M6/8
2.g##X	p	2.dd#]	p	4.ee#)	p	2.bb#]	>]	V65	=10	a#	M6/8
=11	=11	=11	=11	=11	=11	=11	=11	=11	=11	=11	=11
4r	p	2.r	p	(8g##XL	p	(8bb#XL	p	V7	=11	a#	M6/8
4r	p	2.r	p	8e#	p	8gg##X	p	V7	=11	a#	M6/8
8r	p	2.r	p	[8b#J)	sf	[8ddd#J)	sf	V7	=11	a#	M6/8
8D#L	p <	2.r	p	4.b#_	>]	4.ddd#_	>]	V7	=11	a#	M6/8
8BB#X	p <	2.r	p	4.b#_	>]	4.ddd#_	>]	V7	=11	a#	M6/8
[8F#J	sf [[	2.r	p	4.b#_	>]	4.ddd#_	>]	V7	=11	a#	M6/8
=12	=12	=12	=12	=12	=12	=12	=12	=12	=12	=12	=12
(4.F#]	>	2.G##X	p	2.b#]	p	2.ddd#]	p	V7	=12	a#	M6/8
4.E#)	]]	2.G##X	p	2.b#]	p	2.ddd#]	p	V7	=12	a#	M6/8
=13	=13	=13	=13	=13	=13	=13	=13	=13	=13	=13	=13
[2.E#	> < [[	4A#	<	(4.cc#	<	(8.ccc#L	<	V(64)	=13	a#	M6/8
[2.E#	> < [[	4A#	<	(4.cc#	<	16aa#L	<	V(64)	=13	a#	M6/8
[2.E#	> < [[	(8A#	[ >	(4.cc#	<	16ccc#	[ >	V(64)	=13	a#	M6/8
[2.E#	> < [[	(8A#	[ >	(4.cc#	<	16aa#JJ	[ >	V(64)	=13	a#	M6/8
[2.E#	> < [[	4B#	[ >	8dd#L	[ >	[4.gg##X)	]]	V7	=13	a#	M6/8
[2.E#	> < [[	4B#	[ >	16ff#L	[ >	[4.gg##X)	]]	V7	=13	a#	M6/8
[2.E#	> < [[	4B#	[ >	16ee#	[ >	[4.gg##X)	]]	V7	=13	a#	M6/8
[2.E#	> < [[	16f#LL	[ >	16b#	[ >	[4.gg##X)	]]	V7	=13	a#	M6/8
[2.E#	> < [[	16e#JJ)	]]	16dd#JJ)	]]	[4.gg##X)	]]	V7	=13	a#	M6/8
=14	=14	=14	=14	=14	=14	=14	=14	=14	=14	=14	=14
2.E#]	] > < [[	(4e#	<	4cc#	<	(16gg##LL]	<	V(64)	=14	a#	M6/8
2.E#]	] > < [[	(4e#	<	4cc#	<	16aa#	<	V(64)	=14	a#	M6/8
2.E#]	] > < [[	(4e#	<	4cc#	<	16bb#	<	V(64)	=14	a#	M6/8
2.E#]	] > < [[	(4e#	<	4cc#	<	16aa#	<	V(64)	=14	a#	M6/8
2.E#]	] > < [[	8A#	<	(8cc#	<	16ccc#	<	V(64)	=14	a#	M6/8
2.E#]	] > < [[	8A#	<	(8cc#	<	16aa#JJ)	<	V(64)	=14	a#	M6/8
2.E#]	] > < [[	4B#	[ >	16dd#LL	[ >	(8aa#	[ >	V7(4)	=14	a#	M6/8
2.E#]	] > < [[	4B#	[ >	16dd#	[ >	(8aa#	[ >	V7(4)	=14	a#	M6/8
2.E#]	] > < [[	4B#	[ >	16ff#	[ >	4gg##X)	]]	V7	=14	a#	M6/8
2.E#]	] > < [[	4B#	[ >	16ee#	[ >	4gg##X)	]]	V7	=14	a#	M6/8
2.E#]	] > < [[	16f#LL	[ >	16b#	[ >	4gg##X)	]]	V7	=14	a#	M6/8
2.E#]	] > < [[	16e#JJ)	]]	16dd#JJ)	]]	4gg##X)	]]	V7	=14	a#	M6/8
=15	=15	=15	=15	=15	=15	=15	=15	=15	=15	=15	=15
8A#	[	8e#	]]	8cc#	]]	(16aa#LL	]]	i\\	=15	a#	M6/8
8A#	[	8e#	]]	8cc#	]]	16gg##X	]]	i\\	=15	a#	M6/8
8r	[	8r	]]	8r	]]	16aa#	]]	i\\	=15	a#	M6/8
8r	[	8r	]]	8r	]]	16bb#	]]	i\\	=15	a#	M6/8
8r	[	8r	]]	16r	]]	16ccc#	]]	i\\	=15	a#	M6/8
8r	[	8r	]]	(16e#	]]	16ee#JJ	]]	i\\	=15	a#	M6/8
8D#	[	8d#	]]	16f#LL	]]	16ff#LL	]]	iv	=15	a#	M6/8
8D#	[	8d#	]]	16g#	]]	16gg#	]]	iv	=15	a#	M6/8
8r	[	8r	]]	16a#	]]	16aa#	]]	V6/iv	=15	a#	M6/8
8r	[	8r	]]	16c##X	]]	16cc##X	]]	V6/iv	=15	a#	M6/8
8r	[	8r	]]	16d#	]]	16dd#	]]	iv	=15	a#	M6/8
8r	[	8r	]]	16e#JJ	]]	16ee#JJ)	]]	iv	=15	a#	M6/8
=16	=16	=16	=16	=16	=16	=16	=16	=16	=16	=16	=16
2.r	[	16r	]]	8f#)	]]	(16ff#LL	]]	.bII	=16	a#	M6/8
2.r	[	(16A#LL	]]	8f#)	]]	16a#	]]	.bII	=16	a#	M6/8
2.r	[	16B	]]	8r	]]	16b	]]	.bII	=16	a#	M6/8
2.r	[	16c#	]]	8r	]]	16cc#	]]	.bII	=16	a#	M6/8
2.r	[	16d#	]]	8r	]]	16dd#	]]	.bII	=16	a#	M6/8
2.r	[	16F#JJ	]]	8r	]]	16f#JJ	]]	.bII	=16	a#	M6/8
2.r	[	16G#LL	]]	4r	]]	16g#LL	]]	vii	=16	a#	M6/8
2.r	[	16A#	]]	4r	]]	16a#	]]	vii	=16	a#	M6/8
2.r	[	16B	]]	4r	]]	16b	]]	vii	=16	a#	M6/8
2.r	[	16c#	]]	4r	]]	16cc#	]]	vii	=16	a#	M6/8
2.r	[	16d#	]]	8r	]]	16dd#	]]	vii	=16	a#	M6/8
2.r	[	16e#JJ	]]	8r	]]	16ee#JJ	]]	vii	=16	a#	M6/8
=17	=17	=17	=17	=17	=17	=17	=17	=17	=17	=17	=17
2.r	[	16f#LL	]]	2.r	]]	16ff#LL	]]	III	=17	a#	M6/8
2.r	[	16e#	]]	2.r	]]	16ee#	]]	III	=17	a#	M6/8
2.r	[	16g#	]]	2.r	]]	16gg#	]]	III	=17	a#	M6/8
2.r	[	16f#	]]	2.r	]]	16ff#	]]	III	=17	a#	M6/8
2.r	[	16e#	]]	2.r	]]	16ee#	]]	III	=17	a#	M6/8
2.r	[	16d#JJ	]]	2.r	]]	16dd#JJ	]]	III	=17	a#	M6/8
2.r	[	16c#LL	]]	2.r	]]	16cc#LL	]]	III	=17	a#	M6/8
2.r	[	16B	]]	2.r	]]	16b	]]	III	=17	a#	M6/8
2.r	[	16A#	]]	2.r	]]	16a#	]]	III	=17	a#	M6/8
2.r	[	16B	]]	2.r	]]	16b	]]	.bII	=17	a#	M6/8
2.r	[	16d#	]]	2.r	]]	16dd#	]]	.bII	=17	a#	M6/8
2.r	[	16f#JJ)	]]	2.r	]]	16ff#JJ)	]]	.bII	=17	a#	M6/8
=18	=18	=18	=18	=18	=18	=18	=18	=18	=18	=18	=18
8r	[	(8f#	]]	8r	]]	(8ff#	]]	.bII	=18	a#	M6/8
8D##XL	[	[4c#)	]]	8f##XL	]]	[4a#)	]]	#viio7/V	=18	a#	M6/8
8D##J	[	[4c#)	]]	8f##J	]]	[4a#)	]]	#viio7/V	=18	a#	M6/8
8E#L	[	(8c#L]	]]	(8e#L	]]	(8a#L]	]]	V(64)	=18	a#	M6/8
8E#	[	8e#	]]	8a#	]]	8cc#	]]	V(64)	=18	a#	M6/8
8E#J	[	8d#J)	]]	8g##XJ)	]]	8b#XJ)	]]	V(64)	=18	a#	M6/8
=19	=19	=19	=19	=19	=19	=19	=19	=19	=19	=19	=19
4F#'	f	4d#'	f	4g##X'	f	4b#X'	f	#viio2	=19	a#	M6/8
8r	f	8r	f	8r	f	8r	f	#viio2	=19	a#	M6/8
4GG##X'	f	4g##X' 4b#X	f	4ee#' 4bb#	f	4ee#' 4eee#	f	V6\\	=19	a#	M6/8
8r	f	8r	f	8r	f	8r	f	V6\\	=19	a#	M6/8
=20	=20	=20	=20	=20	=20	=20	=20	=20	=20	=20	=20
2.r	f	2.r	f	2.r	f	2.r	f	V6\\	=20	a#	M6/8
=21	=21	=21	=21	=21	=21	=21	=21	=21	=21	=21	=21
2.A#	p	8r	f	8.r	f	8r	f	i[i6	=21	a#	M6/8
2.A#	p	8r	f	8.r	f	8r	f	i[i6	=21	a#	M6/8
2.A#	p	8r	f	(16a#LL	p	8r	f	i[i6	=21	a#	M6/8
2.A#	p	(8c#	p	16cc#	p	(8aa#	p	i[i6	=21	a#	M6/8
2.A#	p	(8c#	p	16a#JJ	p	(8aa#	p	i[i6	=21	a#	M6/8
2.A#	p	8d#L	p	[4.g##X)	p	4bb#	p	#viio64	=21	a#	M6/8
2.A#	p	16f#L	p	[4.g##X)	p	4bb#	p	#viio64	=21	a#	M6/8
2.A#	p	16e#	p	[4.g##X)	p	4bb#	p	#viio64	=21	a#	M6/8
2.A#	p	16B#	p	[4.g##X)	p	16fff#LL	p	#viio64	=21	a#	M6/8
2.A#	p	16d#JJ)	p	[4.g##X)	p	16eee#JJ)	p	#viio64	=21	a#	M6/8
=22	=22	=22	=22	=22	=22	=22	=22	=22	=22	=22	=22
2.A#	p	(8d#L	p	(16g##LL]	p	(4eee#	p	i6	=22	a#	M6/8
2.A#	p	(8d#L	p	16a#	p	(4eee#	p	i6	=22	a#	M6/8
2.A#	p	8c#)	p	16b#	p	(4eee#	p	i6	=22	a#	M6/8
2.A#	p	8c#)	p	16a#	p	(4eee#	p	i6	=22	a#	M6/8
2.A#	p	8c#J	p	16cc#	p	8aa#	p	i6	=22	a#	M6/8
2.A#	p	8c#J	p	16a#JJ	p	8aa#	p	i6	=22	a#	M6/8
2.A#	p	(8d#L	p	4.g##X)	p	4bb#	p	#viio64	=22	a#	M6/8
2.A#	p	16f#L	p	4.g##X)	p	4bb#	p	#viio64	=22	a#	M6/8
2.A#	p	16e#	p	4.g##X)	p	4bb#	p	#viio64	=22	a#	M6/8
2.A#	p	16B#	p	4.g##X)	p	16fff#LL	p	#viio64	=22	a#	M6/8
2.A#	p	16d#JJ	p	4.g##X)	p	16eee#JJ)	p	#viio64	=22	a#	M6/8
=23	=23	=23	=23	=23	=23	=23	=23	=23	=23	=23	=23
4A#	p	4c#)	p	(16a#LL	p	8eee#	p	i6]	=23	a#	M6/8
4A#	p	4c#)	p	16g##X	p	8eee#	p	i6]	=23	a#	M6/8
4A#	p	4c#)	p	16a#	p	8r	p	i6]	=23	a#	M6/8
4A#	p	4c#)	p	16b#	p	8r	p	i6]	=23	a#	M6/8
8r	p	8r	p	16cc#	p	16r	p	i6]	=23	a#	M6/8
8r	p	8r	p	16e#JJ	p	(16ee#	p	i6]	=23	a#	M6/8
4D#	p	4d#	p	16f#LL	p	16ff#LL	p	iv	=23	a#	M6/8
4D#	p	4d#	p	16g#	p	16gg#	p	iv	=23	a#	M6/8
4D#	p	4d#	p	16a#	p	16aa#	p	V6/iv	=23	a#	M6/8
4D#	p	4d#	p	16c##X	p	16cc##X	p	V6/iv	=23	a#	M6/8
8r	p	8r	p	16d#	p	16dd#	p	iv	=23	a#	M6/8
8r	p	8r	p	16e#JJ	p	16ee#JJ)	p	iv	=23	a#	M6/8
=24	=24	=24	=24	=24	=24	=24	=24	=24	=24	=24	=24
2.r	p	16r	p	8f#)	p	(16ff#LL	p	.bII	=24	a#	M6/8
2.r	p	(16A#LL	p	8f#)	p	16a#	p	.bII	=24	a#	M6/8
2.r	p	16B	p	8r	p	16b	p	.bII	=24	a#	M6/8
2.r	p	16c#	p	8r	p	16cc#	p	.bII	=24	a#	M6/8
2.r	p	16d#	p	8r	p	16dd#	p	.bII	=24	a#	M6/8
2.r	p	16F#JJ	p	8r	p	16f#JJ	p	.bII	=24	a#	M6/8
2.r	p	16G#LL	p	4r	p	16g#LL	p	vii	=24	a#	M6/8
2.r	p	16A#	p	4r	p	16a#	p	vii	=24	a#	M6/8
2.r	p	16B	p	4r	p	16b	p	vii	=24	a#	M6/8
2.r	p	16c#	p	4r	p	16cc#	p	vii	=24	a#	M6/8
2.r	p	16d#	p	8r	p	16dd#	p	vii	=24	a#	M6/8
2.r	p	16e#JJ)	p	8r	p	16ee#JJ)	p	vii	=24	a#	M6/8
=25	=25	=25	=25	=25	=25	=25	=25	=25	=25	=25	=25
8r	p	8f#	p	(16f#LL	p	(16ff#LL	p	vii	=25	a#	M6/8
8r	p	8f#	p	16g#	p	16gg#	p	vii	=25	a#	M6/8
16r	p	16r	p	16a#	p	16aa#	p	vii	=25	a#	M6/8
(16BBLL	p	(16BLL	p	16b	p	16bb	p	.bII	=25	a#	M6/8
16C#	p	16c#	p	16cc#	p	16ccc#	p	.bII	=25	a#	M6/8
16D#JJ	p	16d#JJ	p	16dd#JJ	p	16ddd#JJ	p	.bII	=25	a#	M6/8
16E#LL	p	16e#LL	p	16ee#LL	p	16eee#LL	p	.bII	=25	a#	M6/8
16F#	p	16f#	p	16ff#	p	16fff#	p	.bII	=25	a#	M6/8
16G#	p	16g#	p	16gg#	p	16ggg#	p	.bII	=25	a#	M6/8
16A#)	p	16a#)	p	16aa#)	p	16aaa#)	p	.bII	=25	a#	M6/8
16B'	p	16b'	p	16bb'	p	16bbb'	p	vi.iv6	=25	a#	M6/8
16DX'JJ	p	16F#'JJ	p	16b'JJ	p	16bbb'JJ	p	vi.iv6	=25	a#	M6/8
=26	=26	=26	=26	=26	=26	=26	=26	=26	=26	=26	=26
16C#LL	ff ff	16G#LL	ff	16ee#LL	ff	[4.bbb	p	V7	=26	a#	M6/8
16C#	ff ff	16G#	ff	16e#	ff	[4.bbb	p	V7	=26	a#	M6/8
16C#	ff ff	16G#	ff	16e#	ff	[4.bbb	p	V7	=26	a#	M6/8
16C#	ff ff	16G#	ff	16e#	ff	[4.bbb	p	V7	=26	a#	M6/8
16C#	ff ff	16G#	ff	16e#	ff	[4.bbb	p	V7	=26	a#	M6/8
16C#JJ	ff ff	16G#JJ	ff	16e#JJ	ff	[4.bbb	p	V7	=26	a#	M6/8
16C#LL	ff ff	16G#LL	ff	16e#LL	ff	4bbb]	p	V7	=26	a#	M6/8
16C#	ff ff	16G#	ff	16e#	ff	4bbb]	p	V7	=26	a#	M6/8
16C#	ff ff	16G#	ff	16e#	ff	4bbb]	p	V7	=26	a#	M6/8
16C#	ff ff	16G#	ff	16e#	ff	4bbb]	p	V7	=26	a#	M6/8
16C#	ff ff	16G#	ff	16e#	ff	8bT	p	V7	=26	a#	M6/8
16C#JJ	ff ff	16G#JJ	ff	16e#JJ	ff	8bT	p	V7	=26	a#	M6/8
=27	=27	=27	=27	=27	=27	=27	=27	=27	=27	=27	=27
4F#	ff ff	[4.ff#	sf	[4.aaX	sf	(16aXLL	p	i	=27	a#	M6/8
4F#	ff ff	[4.ff#	sf	[4.aaX	sf	16cc#	p	i	=27	a#	M6/8
4F#	ff ff	[4.ff#	sf	[4.aaX	sf	16ff#	p	i	=27	a#	M6/8
4F#	ff ff	[4.ff#	sf	[4.aaX	sf	16cc#	p	i	=27	a#	M6/8
8r	ff ff	[4.ff#	sf	[4.aaX	sf	16aaX	p	i	=27	a#	M6/8
8r	ff ff	[4.ff#	sf	[4.aaX	sf	16ff#JJ)	p	i	=27	a#	M6/8
4r	ff ff	4ff#]	sf	4aa]	sf	(16ccc#LL	p	i	=27	a#	M6/8
4r	ff ff	4ff#]	sf	4aa]	sf	16aa	p	i	=27	a#	M6/8
4r	ff ff	4ff#]	sf	4aa]	sf	16fff#	p	i	=27	a#	M6/8
4r	ff ff	4ff#]	sf	4aa]	sf	16ccc#)	p	i	=27	a#	M6/8
8r	ff ff	8f#T	sf	8aXt	sf	16aaaX'	p	i	=27	a#	M6/8
8r	ff ff	8f#T	sf	8aXt	sf	16aaa'JJ	p	i	=27	a#	M6/8
=28	=28	=28	=28	=28	=28	=28	=28	=28	=28	=28	=28
16BB#XLL	sf	16g#LL	sf	16f# 16dd#LL	sf	[4.ggg#	sf	iii.V65	=28	a#	M6/8
16BB#X	sf	16g#	sf	16f# 16dd#	sf	[4.ggg#	sf	iii.V65	=28	a#	M6/8
16BB#X	sf	16g#	sf	16f# 16dd#	sf	[4.ggg#	sf	iii.V65	=28	a#	M6/8
16BB#X	sf	16g#	sf	16f# 16dd#	sf	[4.ggg#	sf	iii.V65	=28	a#	M6/8
16BB#X	sf	16g#	sf	16f# 16dd#	sf	[4.ggg#	sf	iii.V65	=28	a#	M6/8
16BB#XJJ	sf	16g#JJ	sf	16f# 16dd#JJ	sf	[4.ggg#	sf	iii.V65	=28	a#	M6/8
16BB#LL	sf	16g#LL	sf	16f# 16dd#LL	sf	4ggg#]	sf	iii.V65	=28	a#	M6/8
16BB#	sf	16g#	sf	16f# 16dd#	sf	4ggg#]	sf	iii.V65	=28	a#	M6/8
16BB#	sf	16g#	sf	16f# 16dd#	sf	4ggg#]	sf	iii.V65	=28	a#	M6/8
16BB#	sf	16g#	sf	16f# 16dd#	sf	4ggg#]	sf	iii.V65	=28	a#	M6/8
16BB#	sf	16g#	sf	16f# 16dd#	sf	8f#T	sf	iii.V65	=28	a#	M6/8
16BB#JJ	sf	16g#JJ	sf	16f# 16dd#JJ	sf	8f#T	sf	iii.V65	=28	a#	M6/8
16BB#JJ	sf	16g#JJ	sf	16f# 16dd#JJ	sf	16qqe#/LL	sf	iii.V65	=28	a#	M6/8
16BB#JJ	sf	16g#JJ	sf	16f# 16dd#JJ	sf	16qqf#/JJ	sf	iii.V65	=28	a#	M6/8
=29	=29	=29	=29	=29	=29	=29	=29	=29	=29	=29	=29
4C#	sf	[4.cc#	sf	[4.eeX	sf	(16eXLL	sf	i	=29	a#	M6/8
4C#	sf	[4.cc#	sf	[4.eeX	sf	16g#	sf	i	=29	a#	M6/8
4C#	sf	[4.cc#	sf	[4.eeX	sf	16cc#	sf	i	=29	a#	M6/8
4C#	sf	[4.cc#	sf	[4.eeX	sf	16g#	sf	i	=29	a#	M6/8
8r	sf	[4.cc#	sf	[4.eeX	sf	16eeX	sf	i	=29	a#	M6/8
8r	sf	[4.cc#	sf	[4.eeX	sf	16cc#JJ)	sf	i	=29	a#	M6/8
4r	sf	4cc#]	sf	4ee]	sf	(16gg#LL	sf	i	=29	a#	M6/8
4r	sf	4cc#]	sf	4ee]	sf	16ee	sf	i	=29	a#	M6/8
4r	sf	4cc#]	sf	4ee]	sf	16ccc#	sf	i	=29	a#	M6/8
4r	sf	4cc#]	sf	4ee]	sf	16gg#)	sf	i	=29	a#	M6/8
8r	sf	8c#	sf	8eXT	sf	16eeeX'	sf	i	=29	a#	M6/8
8r	sf	8c#	sf	8eXT	sf	16eee'JJ	sf	i	=29	a#	M6/8
=30	=30	=30	=30	=30	=30	=30	=30	=30	=30	=30	=30
16AAXLL	sf	16AXLL	sf	16c# 16cc#LL	sf	[4.eeeX	sf	VI	=30	a#	M6/8
16AAX	sf	16AX	sf	16c# 16cc#	sf	[4.eeeX	sf	VI	=30	a#	M6/8
16AAX	sf	16AX	sf	16c# 16cc#	sf	[4.eeeX	sf	VI	=30	a#	M6/8
16AAX	sf	16AX	sf	16c# 16cc#	sf	[4.eeeX	sf	VI	=30	a#	M6/8
16AAX	sf	16AX	sf	16c# 16cc#	sf	[4.eeeX	sf	VI	=30	a#	M6/8
16AAXJJ	sf	16AXJJ	sf	16c# 16cc#JJ	sf	[4.eeeX	sf	VI	=30	a#	M6/8
16AALL	sf	16ALL	sf	16c# 16cc#LL	sf	4eee]	sf	VI	=30	a#	M6/8
16AA	sf	16A	sf	16c# 16cc#	sf	4eee]	sf	VI	=30	a#	M6/8
16AA	sf	16A	sf	16c# 16cc#	sf	4eee]	sf	VI	=30	a#	M6/8
16AA	sf	16A	sf	16c# 16cc#	sf	4eee]	sf	VI	=30	a#	M6/8
16AA	sf	16A	sf	16c# 16cc#	sf	8f##Xt	sf	.Ger6	=30	a#	M6/8
16AAJJ	sf	16AJJ	sf	16c# 16cc#JJ	sf	8f##Xt	sf	.Ger6	=30	a#	M6/8
=31	=31	=31	=31	=31	=31	=31	=31	=31	=31	=31	=31
[4.GG#	f	(8.G#L	f	(4b#	f	(16g#LL	f	V[V	=31	a#	M6/8
[4.GG#	f	(8.G#L	f	(4b#	f	16dd#	f	V[V	=31	a#	M6/8
[4.GG#	f	(8.G#L	f	(4b#	f	16gg#	f	V[V	=31	a#	M6/8
[4.GG#	f	16AXL	f	(4b#	f	16ff#J	f	iv6	=31	a#	M6/8
[4.GG#	f	16F#	f	8cc#)	f	8eeXJ	f	#viio7/V	=31	a#	M6/8
[4.GG#	f	16F##XJJ	f	8cc#)	f	8eeXJ	f	#viio7/V	=31	a#	M6/8
(8.GG#L]	f	8G#)	f	(16b#LL	f	4dd#	f	V	=31	a#	M6/8
(8.GG#L]	f	8G#)	f	16d#	f	4dd#	f	V	=31	a#	M6/8
(8.GG#L]	f	8r	f	16g#	f	4dd#	f	V	=31	a#	M6/8
16AAXL	f	8r	f	16f#	f	4dd#	f	V	=31	a#	M6/8
16FF#	f	8r	f	16eX	f	8cc#)	f	#viio7/V	=31	a#	M6/8
16FF##XJJ)	f	8r	f	16eeXJJ)	f	8cc#)	f	#viio7/V	=31	a#	M6/8
=32	=32	=32	=32	=32	=32	=32	=32	=32	=32	=32	=32
[4.GG#	f	16r	f	(16dd#LL	f	(16b#LL	f	V	=32	a#	M6/8
[4.GG#	f	(16cc#LL	f	16eeX	f	16aaX	f	VI6	=32	a#	M6/8
[4.GG#	f	16dd#	f	16ff#	f	16ff#	f	VI6	=32	a#	M6/8
[4.GG#	f	16cc#	f	16ee	f	16ff##X	f	#viio43/V	=32	a#	M6/8
[4.GG#	f	16b#	f	16dd#	f	16gg#	f	V6	=32	a#	M6/8
[4.GG#	f	16aXJJ	f	16ff##XJJ	f	16ccc#JJ	f	.Ger6	=32	a#	M6/8
8.GG#L]	f	16g#LL	f	16gg#LL	f	16bb#LL	f	V	=32	a#	M6/8
8.GG#L]	f	16f##X	f	16ccc#	f	16eeeX	f	#viio7/V	=32	a#	M6/8
8.GG#L]	f	16g#	f	16bb#X	f	16ddd#	f	V	=32	a#	M6/8
(16D#L	f	16a#	f	16ccc#	f	16fff##X	f	V7/V	=32	a#	M6/8
16GG#	f	16g#	f	16bb#	f	16ggg#	f	V	=32	a#	M6/8
16D#JJ)	f	16a#JJ)	f	16ccc#JJ)	f	16fff##JJ)	f	V7/V	=32	a#	M6/8
=33	=33	=33	=33	=33	=33	=33	=33	=33	=33	=33	=33
(16GG#LL	f	8g#'L	f	8bb#'L	f	8ggg#'L	f	V]	=33	a#	M6/8
16FF##X	f	8g#'L	f	8bb#'L	f	8ggg#'L	f	V]	=33	a#	M6/8
16GG#	f	8G#'	f	8dd#' 8bb#	f	8ggg#'	f	V]	=33	a#	M6/8
16FF##	f	8G#'	f	8dd#' 8bb#	f	8ggg#'	f	V]	=33	a#	M6/8
16GG#	f	8G#'J	f	8dd#'J 8bb#	f	8ggg#'J	f	V]	=33	a#	M6/8
16FF##JJ)	f	8G#'J	f	8dd#'J 8bb#	f	8ggg#'J	f	V]	=33	a#	M6/8
[4.GG#	sf	(16G#LL	sf	8dd# 8bb#	f	8ggg#	f	III.V\\	=33	a#	M6/8
[4.GG#	sf	16F##X	sf	8dd# 8bb#	f	8ggg#	f	III.V\\	=33	a#	M6/8
[4.GG#	sf	16G#	sf	8r	f	8r	f	III.V\\	=33	a#	M6/8
[4.GG#	sf	16F##	sf	8r	f	8r	f	III.V\\	=33	a#	M6/8
[4.GG#	sf	16G#	sf	8r	f	8r	f	III.V\\	=33	a#	M6/8
[4.GG#	sf	16F##JJ	sf	8r	f	8r	f	III.V\\	=33	a#	M6/8
=34	=34	=34	=34	=34	=34	=34	=34	=34	=34	=34	=34
2.GG#_	>]	16G#LL	>	2.r	f	2.r	f	III.V\\	=34	a#	M6/8
2.GG#_	>]	16F##X	>	2.r	f	2.r	f	III.V\\	=34	a#	M6/8
2.GG#_	>]	16G#	>	2.r	f	2.r	f	III.V\\	=34	a#	M6/8
2.GG#_	>]	16F##	>	2.r	f	2.r	f	III.V\\	=34	a#	M6/8
2.GG#_	>]	16G#	>	2.r	f	2.r	f	III.V\\	=34	a#	M6/8
2.GG#_	>]	16F##JJ	>	2.r	f	2.r	f	III.V\\	=34	a#	M6/8
2.GG#_	>]	16G#LL	>	2.r	f	2.r	f	III.V\\	=34	a#	M6/8
2.GG#_	>]	16F##	>	2.r	f	2.r	f	III.V\\	=34	a#	M6/8
2.GG#_	>]	16G#	>	2.r	f	2.r	f	III.V\\	=34	a#	M6/8
2.GG#_	>]	16F##	>	2.r	f	2.r	f	III.V\\	=34	a#	M6/8
2.GG#_	>]	16G#	>	2.r	f	2.r	f	III.V\\	=34	a#	M6/8
2.GG#_	>]	16F##JJ)	]]	2.r	f	2.r	f	III.V\\	=34	a#	M6/8
=35	=35	=35	=35	=35	=35	=35	=35	=35	=35	=35	=35
(8.GG#L]	p	(16G#LL	p	2.r	f	2.r	f	V7	=35	a#	M6/8
(8.GG#L]	p	16F#	p	2.r	f	2.r	f	V7	=35	a#	M6/8
(8.GG#L]	p	16G#	p	2.r	f	2.r	f	V7	=35	a#	M6/8
16BB#L	p	16F#	p	2.r	f	2.r	f	V7	=35	a#	M6/8
16AA#	p	16G#	p	2.r	f	2.r	f	V7	=35	a#	M6/8
16C#JJ	p	16F#JJ	p	2.r	f	2.r	f	V7	=35	a#	M6/8
8.BB#L	p	16G#LL	p	2.r	f	2.r	f	V7	=35	a#	M6/8
8.BB#L	p	16F#	p	2.r	f	2.r	f	V7	=35	a#	M6/8
8.BB#L	p	16G#	p	2.r	f	2.r	f	V7	=35	a#	M6/8
16D#L	p	16F#	p	2.r	f	2.r	f	V7	=35	a#	M6/8
16C##X	p	16G#	p	2.r	f	2.r	f	V7	=35	a#	M6/8
16E#JJ)	p	16F#JJ)	p	2.r	f	2.r	f	V7	=35	a#	M6/8
=36	=36	=36	=36	=36	=36	=36	=36	=36	=36	=36	=36
4D#	p	(16G#LL	p	2.r	f	(8.ddd#L	p	V43	=36	a#	M6/8
4D#	p	16F#	p	2.r	f	(8.ddd#L	p	V43	=36	a#	M6/8
4D#	p	16G#	p	2.r	f	(8.ddd#L	p	V43	=36	a#	M6/8
4D#	p	16F#	p	2.r	f	16bb#XL	p	V43	=36	a#	M6/8
8r	p	16G#	p	2.r	f	16ccc#	p	V43	=36	a#	M6/8
8r	p	16F#JJ	p	2.r	f	16aa#JJ)	p	V43	=36	a#	M6/8
4r	p	16G#LL	p	2.r	f	8gg#'L	p	V43	=36	a#	M6/8
4r	p	16F#	p	2.r	f	8gg#'L	p	V43	=36	a#	M6/8
4r	p	16G#	p	2.r	f	8gg#'	p	V43	=36	a#	M6/8
4r	p	16F#	p	2.r	f	8gg#'	p	V43	=36	a#	M6/8
8r	p	16G#	p	2.r	f	8gg#'J	p	V43	=36	a#	M6/8
8r	p	16F#JJ)	p	2.r	f	8gg#'J	p	V43	=36	a#	M6/8
=37	=37	=37	=37	=37	=37	=37	=37	=37	=37	=37	=37
(8.BB#L	p	(16G#LL	p	2.r	f	4gg#	p	V65	=37	a#	M6/8
(8.BB#L	p	16F#	p	2.r	f	4gg#	p	V65	=37	a#	M6/8
(8.BB#L	p	16G#	p	2.r	f	4gg#	p	V65	=37	a#	M6/8
16D#L	p	16F#	p	2.r	f	4gg#	p	V65	=37	a#	M6/8
16C##X	p	16G#	p	2.r	f	8r	p	V65	=37	a#	M6/8
16E#JJ	p	16F#JJ	p	2.r	f	8r	p	V65	=37	a#	M6/8
8.D#L	p	16G#LL	p	2.r	f	4r	p	V43	=37	a#	M6/8
8.D#L	p	16F#	p	2.r	f	4r	p	V43	=37	a#	M6/8
8.D#L	p	16G#	p	2.r	f	4r	p	V43	=37	a#	M6/8
16F#L	p	16F#	p	2.r	f	4r	p	V43	=37	a#	M6/8
16E#	p	16G#	p	2.r	f	8r	p	V43	=37	a#	M6/8
16G#JJ)	p	16F#JJ)	p	2.r	f	8r	p	V43	=37	a#	M6/8
=38	=38	=38	=38	=38	=38	=38	=38	=38	=38	=38	=38
4F#	p	(16G#LL	p	(16b#LL	f	(8.fff#L	p	V2	=38	a#	M6/8
4F#	p	16F#	p	16g#	f	(8.fff#L	p	V2	=38	a#	M6/8
4F#	p	16G#	p	16b#	f	(8.fff#L	p	V2	=38	a#	M6/8
4F#	p	16F#	p	16g#	f	16eee#L	p	V2	=38	a#	M6/8
8r	p	16G#	p	16b#	f	16ddd#	p	V2	=38	a#	M6/8
8r	p	16F#JJ	p	16g#JJ	f	16ccc##XJJ	p	V2	=38	a#	M6/8
4r	p	16G#LL	p	16b#LL	f	16ddd#LL	p	V2	=38	a#	M6/8
4r	p	16F#	p	16g#	f	16eee#	p	V2	=38	a#	M6/8
4r	p	16G#	p	16b#	f	16fff#	p	V2	=38	a#	M6/8
4r	p	16F#	p	16g#	f	16ggg#	p	V2	=38	a#	M6/8
(8F#	p	16B#	p	16b#	f	16aaa#	p	V2	=38	a#	M6/8
(8F#	p	16G#JJ)	p	16g#JJ)	f	16ggg#JJ)	p	V2	=38	a#	M6/8
=39	=39	=39	=39	=39	=39	=39	=39	=39	=39	=39	=39
4E#)	p	(16c#LL	p	(16cc#LL	f	(4ggg#	p	I6	=39	a#	M6/8
4E#)	p	16G#	p	16g#	f	(4ggg#	p	I6	=39	a#	M6/8
4E#)	p	16c#	p	16cc#	f	(4ggg#	p	I6	=39	a#	M6/8
4E#)	p	16G#	p	16g#	f	(4ggg#	p	I6	=39	a#	M6/8
8r	p	16c#	p	16cc#	f	8cccc#	p	I6	=39	a#	M6/8
8r	p	16G#JJ	p	16g#JJ	f	8cccc#	p	I6	=39	a#	M6/8
4F#	p	16c#LL	p	16cc#LL	f	4bbb#	p	IV	=39	a#	M6/8
4F#	p	16A#	p	16a#	f	4bbb#	p	IV	=39	a#	M6/8
4F#	p	16c#	p	16cc#	f	4bbb#	p	IV	=39	a#	M6/8
4F#	p	16A#	p	16a#	f	4bbb#	p	IV	=39	a#	M6/8
8r	p	16c#	p	16cc#	f	8aaa#T)	p	IV	=39	a#	M6/8
8r	p	16A#JJ)	p	16a#JJ)	f	8aaa#T)	p	IV	=39	a#	M6/8
=40	=40	=40	=40	=40	=40	=40	=40	=40	=40	=40	=40
4G#	p	(16B#LL	p	(16b#LL	f	(4ggg#	p	V	=40	a#	M6/8
4G#	p	16d#	p	16dd#	f	(4ggg#	p	V	=40	a#	M6/8
4G#	p	16G#	p	16g#	f	(4ggg#	p	V	=40	a#	M6/8
4G#	p	16B#	p	16b#	f	(4ggg#	p	V	=40	a#	M6/8
8r	p	16d#	p	16dd#	f	8fff#T	p	V7	=40	a#	M6/8
8r	p	16B#JJ)	p	16b#JJ)	f	8fff#T	p	V7	=40	a#	M6/8
8C#	p	4.c#	p	(16cc#LL	f	8eee#)	p	I\\	=40	a#	M6/8
8C#	p	4.c#	p	16b#	f	8eee#)	p	I\\	=40	a#	M6/8
16r	p	4.c#	p	16cc#	f	16r	p	I\\	=40	a#	M6/8
(16a#LL	p	4.c#	p	16dd#	f	(16b#LL	p	I\\	=40	a#	M6/8
16g#	p	4.c#	p	16ee#	f	16cc#	p	I\\	=40	a#	M6/8
16f#JJ)	p	4.c#	p	16ff#JJ)	f	16dd#JJ)	p	I\\	=40	a#	M6/8
=41	=41	=41	=41	=41	=41	=41	=41	=41	=41	=41	=41
(4.e#	p	4r	p	(4gg#	f	(16cc#LL	p	I6	=41	a#	M6/8
(4.e#	p	4r	p	(4gg#	f	16g#	p	I6	=41	a#	M6/8
(4.e#	p	4r	p	(4gg#	f	16cc#	p	I6	=41	a#	M6/8
(4.e#	p	4r	p	(4gg#	f	16g#	p	I6	=41	a#	M6/8
(4.e#	p	8r	p	8ccc#	f	16cc#	p	I6	=41	a#	M6/8
(4.e#	p	8r	p	8ccc#	f	16g#JJ)	p	I6	=41	a#	M6/8
4f#)	p	(16a#LL	p	4bb#	f	(16cc#LL	p	IV(+4)	=41	a#	M6/8
4f#)	p	16f#	p	4bb#	f	16g#	p	IV(+4)	=41	a#	M6/8
4f#)	p	16a#	p	4bb#	f	16ff#	p	IV(+4)	=41	a#	M6/8
4f#)	p	16f#	p	4bb#	f	16cc#	p	IV(+4)	=41	a#	M6/8
(16f#LL	p	16a#	p	8aa#T)	f	16ff#	p	IV	=41	a#	M6/8
16a#JJ)	p	16f#JJ)	p	8aa#T)	f	16cc#JJ)	p	IV	=41	a#	M6/8
=42	=42	=42	=42	=42	=42	=42	=42	=42	=42	=42	=42
(16b#LL	p	(16dd#LL	p	[4.aaX	f	(8ff#L	p	viio7	=42	a#	M6/8
16dd#	p	16b#	p	[4.aaX	f	(8ff#L	p	viio7	=42	a#	M6/8
16b#	p	16dd#	p	[4.aaX	f	8fff#)	p	viio7	=42	a#	M6/8
16dd#	p	16b#	p	[4.aaX	f	8fff#)	p	viio7	=42	a#	M6/8
16b#	p	16dd#	p	[4.aaX	f	8fff#J	p	viio7	=42	a#	M6/8
16dd#JJ	p	16b#JJ	p	[4.aaX	f	8fff#J	p	viio7	=42	a#	M6/8
16b#LL	p	16dd#LL	p	(8aaL]	f	(4.fff#	p	viio7	=42	a#	M6/8
16dd#	p	16b#	p	(8aaL]	f	(4.fff#	p	viio7	=42	a#	M6/8
16b#	p	16dd#	p	8gg#)	f	(4.fff#	p	viio7	=42	a#	M6/8
16dd#	p	16b#	p	8gg#)	f	(4.fff#	p	viio7	=42	a#	M6/8
16b#	p	16dd#	p	8gg#J	f	(4.fff#	p	viio7	=42	a#	M6/8
16dd#JJ)	p	16b#JJ)	p	8gg#J	f	(4.fff#	p	viio7	=42	a#	M6/8
=43	=43	=43	=43	=43	=43	=43	=43	=43	=43	=43	=43
(4.cc#	p	(4.ee#	p	(8gg#L	p	[4.eee#)	p	I6	=43	a#	M6/8
(4.cc#	p	(4.ee#	p	16ccc#L	p	[4.eee#)	p	I6	=43	a#	M6/8
(4.cc#	p	(4.ee#	p	16bb#	p	[4.eee#)	p	I6	=43	a#	M6/8
(4.cc#	p	(4.ee#	p	16aa#	p	[4.eee#)	p	I6	=43	a#	M6/8
(4.cc#	p	(4.ee#	p	16gg##XJJ)	p	[4.eee#)	p	I6	=43	a#	M6/8
4.f#)	p	8a#L	p	(8.aa#L	p	(16eee#LL]	p	ii64(2)	=43	a#	M6/8
4.f#)	p	8a#L	p	(8.aa#L	p	16ccc##X	p	ii64(2)	=43	a#	M6/8
4.f#)	p	16ff#L	p	(8.aa#L	p	16ddd#	p	ii64	=43	a#	M6/8
4.f#)	p	16ee#	p	16gg#L	p	16fff#)	p	ii64	=43	a#	M6/8
4.f#)	p	16dd#	p	16ff#	p	16aaa#'	p	ii64	=43	a#	M6/8
4.f#)	p	16cc#JJ)	p	16ee#JJ)	p	16aaa#'JJ	p	ii64	=43	a#	M6/8
=44	=44	=44	=44	=44	=44	=44	=44	=44	=44	=44	=44
(16g#LL	p	[4.b#	p	[4.dd#	p	(4aaa#	p	V(9)	=44	a#	M6/8
16B#	p	[4.b#	p	[4.dd#	p	(4aaa#	p	V(9)	=44	a#	M6/8
16d#	p	[4.b#	p	[4.dd#	p	(4aaa#	p	V(9)	=44	a#	M6/8
16c#	p	[4.b#	p	[4.dd#	p	(4aaa#	p	V(9)	=44	a#	M6/8
16B#	p	[4.b#	p	[4.dd#	p	[8ggg#)	p	V6	=44	a#	M6/8
16A#JJ)	p	[4.b#	p	[4.dd#	p	[8ggg#)	p	V6	=44	a#	M6/8
4.G#	p	(8b#L]	p	(8dd#L]	p	(16ggg#LL]	p	V	=44	a#	M6/8
4.G#	p	(8b#L]	p	(8dd#L]	p	16bbb#	p	V	=44	a#	M6/8
4.G#	p	8g#	p	8b#	p	16dddd#	p	V	=44	a#	M6/8
4.G#	p	8g#	p	8b#	p	16bbb#	p	V	=44	a#	M6/8
4.G#	p	16a#L	p	16cc#L	p	16ggg#	p	V	=44	a#	M6/8
4.G#	p	16b#JJ)	p	16dd#JJ)	p	16fff#JJ)	p	V	=44	a#	M6/8
=45	=45	=45	=45	=45	=45	=45	=45	=45	=45	=45	=45
4.c#	p	(16cc#LL	p	(16ee#LL	p	4eee#	p	I	=45	a#	M6/8
4.c#	p	16g#	p	16gg#	p	4eee#	p	I	=45	a#	M6/8
4.c#	p	16cc#	p	16ccc#	p	4eee#	p	I	=45	a#	M6/8
4.c#	p	16b#X	p	16bb#X	p	4eee#	p	I	=45	a#	M6/8
4.c#	p	16a#	p	16aa#	p	[8ee#	p	I	=45	a#	M6/8
4.c#	p	16g##XJJ	p	16gg##XJJ	p	[8ee#	p	I	=45	a#	M6/8
(16F#LL	p	16a#LL	p	16aa#LL	p	(16ee#LL]	p	ii6(#76)	=45	a#	M6/8
16G#	p	16b	p	16bb	p	16cc##X	p	ii6(#76)	=45	a#	M6/8
16F#	p	16a#	p	16aa#	p	16dd#	p	ii6	=45	a#	M6/8
16E#	p	16g#	p	16gg#	p	16ff#)	p	ii6	=45	a#	M6/8
16D#	p	16f#	p	16ff#	p	16aa#'	p	ii	=45	a#	M6/8
16C#JJ)	p	16e#JJ)	p	16ee#JJ)	p	16aa#'JJ	p	ii	=45	a#	M6/8
=46	=46	=46	=46	=46	=46	=46	=46	=46	=46	=46	=46
(16BB#LL	p	(16d#LL	p	(16dd#LL	p	(4aa#	p	V6(2)	=46	a#	M6/8
16C#	p	16e#	p	16ee#	p	(4aa#	p	V6(2)	=46	a#	M6/8
16D#	p	16f#	p	16ff#	p	(4aa#	p	V6(2)	=46	a#	M6/8
16C#	p	16e#	p	16ee#	p	(4aa#	p	V6(2)	=46	a#	M6/8
16BB#	p	16d#	p	16dd#	p	[8gg#)	p	V6	=46	a#	M6/8
16AA#JJ	p	16c#JJ	p	16cc#JJ	p	[8gg#)	p	V6	=46	a#	M6/8
16GG#LL)	p	16B#LL)	p	16b#LL)	p	(16gg#LL]	p	V	=46	a#	M6/8
(16G#	p	(16B#	p	(16b#	p	16bb#	p	V	=46	a#	M6/8
16F##X	p	16A#	p	16a#	p	16ddd#	p	V	=46	a#	M6/8
16G#	p	16B#	p	16b#	p	16bb#	p	V	=46	a#	M6/8
16A#	p	16c#	p	16cc#	p	16gg#	p	V	=46	a#	M6/8
16B#JJ)	p	16d#JJ)	p	16dd#JJ)	p	[16ff#JJ)	p	V	=46	a#	M6/8
=47	=47	=47	=47	=47	=47	=47	=47	=47	=47	=47	=47
4.c#	p	4.e#	p	4.g#	p	(16ff#LL]	p	I(11#2)	=47	a#	M6/8
4.c#	p	4.e#	p	4.g#	p	16dd##X	p	I(11#2)	=47	a#	M6/8
4.c#	p	4.e#	p	4.g#	p	16ff#	p	I(11#2)	=47	a#	M6/8
4.c#	p	4.e#	p	4.g#	p	16ee#	p	I	=47	a#	M6/8
4.c#	p	4.e#	p	4.g#	p	16ddd#	p	I	=47	a#	M6/8
4.c#	p	4.e#	p	4.g#	p	16ccc#JJ)	p	I	=47	a#	M6/8
[4.F##X	p	[4.d#	p	[4.cc#	p	16r	p	V65/V	=47	a#	M6/8
[4.F##X	p	[4.d#	p	[4.cc#	p	(16dd#LL	p	V65/V	=47	a#	M6/8
[4.F##X	p	[4.d#	p	[4.cc#	p	16aa#	p	V65/V	=47	a#	M6/8
[4.F##X	p	[4.d#	p	[4.cc#	p	16gg##X	p	V65/V	=47	a#	M6/8
[4.F##X	p	[4.d#	p	[4.cc#	p	16bb#	p	V65/V	=47	a#	M6/8
[4.F##X	p	[4.d#	p	[4.cc#	p	16aa#JJ)	p	V65/V	=47	a#	M6/8
=48	=48	=48	=48	=48	=48	=48	=48	=48	=48	=48	=48
8F##L]	p	8d#L]	p	8cc#L]	p	(8aa#	p	V65/V	=48	a#	M6/8
8G#	p	8e#	p	8g#	p	[4cc#)	p	V(64)	=48	a#	M6/8
8G#J	p	8e#J	p	8g#J	p	[4cc#)	p	V(64)	=48	a#	M6/8
8G#L	p	(8e#L	p	(8g#L	p	(8cc#L]	p	V(64)	=48	a#	M6/8
8G#	p	8g#)	p	8cc#)	p	8ee#)	p	V(64)	=48	a#	M6/8
8G#J	p	8f#'J	p	8b#'J	p	8dd#'J	p	V7	=48	a#	M6/8
=49	=49	=49	=49	=49	=49	=49	=49	=49	=49	=49	=49
8.AXL	f	2.r	p	8.f#L	f	8.b#L 8.dd#	f	viio2	=49	a#	M6/8
16G#'L	f	2.r	p	16g#'L	f	16b#'L 16dd#	f	V	=49	a#	M6/8
16F#'	f	2.r	p	16aX'	f	16b#' 16dd#	f	viio43	=49	a#	M6/8
16G#'JJ	f	2.r	p	16g#'JJ	f	16b#'JJ 16dd#	f	V	=49	a#	M6/8
8.AL	sf	2.r	p	8.f#L	sf	8.b#L 8.dd#	sf	viio2	=49	a#	M6/8
16G#'L	sf	2.r	p	16g#'L	sf	16b#'L 16dd#	sf	V	=49	a#	M6/8
16F#'	sf	2.r	p	16a'	sf	16b#' 16dd#	sf	viio43	=49	a#	M6/8
16F#'JJ	sf	2.r	p	16a'JJ	sf	16b#'JJ 16dd#	sf	viio43	=49	a#	M6/8
=50	=50	=50	=50	=50	=50	=50	=50	=50	=50	=50	=50
2.r	sf	8.ff##XL	f	8.a#L	sf	8.cc#L 8.eeX	sf	#viio65/V	=50	a#	M6/8
2.r	sf	16gg#'L	f	16g#'L	sf	16cc#'L 16ee	sf	i64	=50	a#	M6/8
2.r	sf	16aa#'	f	16f##X'	sf	16cc#' 16ee	sf	#viio7/V	=50	a#	M6/8
2.r	sf	16gg#'JJ	f	16g#'JJ	sf	16cc#'JJ 16ee	sf	i64	=50	a#	M6/8
2.r	sf	8.ff##L	sf	8.a#L	sf	8.cc#L 8.ee	sf	#viio65/V	=50	a#	M6/8
2.r	sf	16gg#'L	sf	16g#'L	sf	16cc#'L 16ee	sf	i64	=50	a#	M6/8
2.r	sf	16aa#'	sf	16f##'	sf	16cc#' 16ee	sf	#viio7/V	=50	a#	M6/8
2.r	sf	16aa#'JJ	sf	16f##'JJ	sf	16cc#'JJ 16ee	sf	#viio7/V	=50	a#	M6/8
=51	=51	=51	=51	=51	=51	=51	=51	=51	=51	=51	=51
8r	sf	(4aa#	>	(4f#	>	(4b#X 4dd#	>	V\\	=51	a#	M6/8
8r	sf	(4aa#	>	(4f#	>	(4b#X 4dd#	>	V\\	=51	a#	M6/8
(8BB#	p	[8gg#	]	8dd#	]	8ff#	]	V65	=51	a#	M6/8
8C#L	p	8gg#L]	p	8cc#L	p	8ee#L	p	I	=51	a#	M6/8
8D#	p	8ff#	p	8b#	p	8dd#	p	viio43	=51	a#	M6/8
8E#J	p	8ee#J)	p	8g#J	p	8cc#J	p	I6	=51	a#	M6/8
=52	=52	=52	=52	=52	=52	=52	=52	=52	=52	=52	=52
8F#L	p	(16ee#LL	p	8f#L	p	8a#L	p	ii6	=52	a#	M6/8
8F#L	p	16dd#J)	p	8f#L	p	8a#L	p	ii6	=52	a#	M6/8
8G#	p	[8cc#'	p	8e#	p	8g#	p	I64	=52	a#	M6/8
8A#J)	p	8cc#'J]	p	8d#J	p	8f##XJ	p	V43/V	=52	a#	M6/8
4.G#	p	(4cc#	p	4e#	p	4g#	p	V(64)	=52	a#	M6/8
4.G#	p	8b#)	p	8d#)	p	8f#)	p	V7	=52	a#	M6/8
=53	=53	=53	=53	=53	=53	=53	=53	=53	=53	=53	=53
8.AXL	f	8.f#L	f	8.b#XL	f	8.dd#L	f	#viio2	=53	a#	M6/8
16G#'L	f	16g#'L	f	16b#'L	f	16dd#'L	f	V	=53	a#	M6/8
16F#'	f	16g##X'	f	16b#'	f	16dd#'	f	#viio2/vi	=53	a#	M6/8
16F#'JJ	f	16g##'JJ	f	16b#'JJ	f	16dd#'JJ	f	#viio2/vi	=53	a#	M6/8
8.E#L	sf	8.g##L	sf	8.b#L	sf	8.dd#L	sf	V7/vi	=53	a#	M6/8
16E#L	sf	16g##'L	sf	16b#L	sf	16dd#L	sf	V7/vi	=53	a#	M6/8
16E#	sf	16a#'	sf	16a#	sf	16cc#	sf	vi64	=53	a#	M6/8
16EXJJ	sf	16g#'JJ	sf	16aa#JJ	sf	16ccc#JJ	sf	vi%43	=53	a#	M6/8
=54	=54	=54	=54	=54	=54	=54	=54	=54	=54	=54	=54
8.D#L	sf	8.f##XL	sf	8.aa#L	sf	8.ccc#L	sf	V7/V	=54	a#	M6/8
16D#L	sf	16f##L	sf	16aa#L	sf	16ccc#L	sf	V7/V	=54	a#	M6/8
16D#	sf	16g#	sf	16gg#	sf	16bb	sf	v64	=54	a#	M6/8
16DXJJ	sf	16f#JJ	sf	16gg#JJ	sf	16bbbJJ	sf	v%43	=54	a#	M6/8
8.C#L	sf	8.e#L	sf	8.gg#L	sf	8.bbbL	sf	V7/IV	=54	a#	M6/8
16C#L	sf	16e#L	sf	16gg#L	sf	16bbbL	sf	V7/IV	=54	a#	M6/8
16FF#	sf	16a#	sf	16ff#	sf	16aaa#	sf	IV	=54	a#	M6/8
16FF##XJJ	sf	16a#JJ	sf	16eeXJJ 16ccc#	sf	16cccc#JJ	sf	#viio7/V	=54	a#	M6/8
=55	=55	=55	=55	=55	=55	=55	=55	=55	=55	=55	=55
8GG#	sf	8g#	sf	8ee# 8ccc#	sf	(4.cccc#	>	V(64)	=55	a#	M6/8
8r	sf	8g#L	sf	[4g#	>	(4.cccc#	>	V(64)	=55	a#	M6/8
8r	sf	[8gg#J	sf >	[4g#	>	(4.cccc#	>	V(64)	=55	a#	M6/8
4r	sf	(16gg#LL]	sf >	4.g#]	]]	[4.bbb)	]]	V43/IV	=55	a#	M6/8
4r	sf	16aa#	sf >	4.g#]	]]	[4.bbb)	]]	V43/IV	=55	a#	M6/8
4r	sf	16gg#	sf >	4.g#]	]]	[4.bbb)	]]	V43/IV	=55	a#	M6/8
4r	sf	16ff#	sf >	4.g#]	]]	[4.bbb)	]]	V43/IV	=55	a#	M6/8
8r	sf	16ee#	sf >	4.g#]	]]	[4.bbb)	]]	V43/IV	=55	a#	M6/8
8r	sf	16dd#JJ	]]	4.g#]	]]	[4.bbb)	]]	V43/IV	=55	a#	M6/8
=56	=56	=56	=56	=56	=56	=56	=56	=56	=56	=56	=56
2.r	sf	(4.cc##X)	p	(4.g#	p	(4bbb]	p	#viio65/ii	=56	a#	M6/8
2.r	sf	(4.cc##X)	p	(4.g#	p	[8aaa#	p	V2/ii	=56	a#	M6/8
2.r	sf	4dd#	p	4f##X	p	4aaa#]	p	V6/V	=56	a#	M6/8
2.r	sf	8b#)	p	8f#)	p	8aaaX)	p	viio65	=56	a#	M6/8
=57	=57	=57	=57	=57	=57	=57	=57	=57	=57	=57	=57
8r	sf	8cc#	p	4e#	p	(16ggg#LL	p	I6	=57	a#	M6/8
8r	sf	8cc#	p	4e#	p	16fff##X	p	I6	=57	a#	M6/8
(8GG#L	sf	8r	p	4e#	p	16fff#	p	I6	=57	a#	M6/8
(8GG#L	sf	8r	p	4e#	p	16eee#	p	I6	=57	a#	M6/8
[8G#J)	>	(8B	p	8r	p	16ddd#	p	v	=57	a#	M6/8
[8G#J)	>	(8B	p	8r	p	16ccc#JJ	p	v	=57	a#	M6/8
4.G#_	]]	4.g#)	p	8r	p	16bbLL	p	v	=57	a#	M6/8
4.G#_	]]	4.g#)	p	8r	p	16aa#	p	v	=57	a#	M6/8
4.G#_	]]	4.g#)	p	(8e#L	p	16gg#	p	v	=57	a#	M6/8
4.G#_	]]	4.g#)	p	(8e#L	p	16ff#	p	v	=57	a#	M6/8
4.G#_	]]	4.g#)	p	[8bJ)	p	16ee#	p	v	=57	a#	M6/8
4.G#_	]]	4.g#)	p	[8bJ)	p	16dd#JJ)	p	v	=57	a#	M6/8
=58	=58	=58	=58	=58	=58	=58	=58	=58	=58	=58	=58
4G#]	pp	4e#	pp	4b]	pp	4cc##X	pp	#viio43/ii	=58	a#	M6/8
[8F##X	pp	[8d#	pp	[8a#	pp	[8dd#	pp	V6/V	=58	a#	M6/8
4F##]	pp	4d#]	pp	4a#]	pp	4dd#]	pp	V6/V	=58	a#	M6/8
[8F#	pp	[8d#	pp	[8aX	pp	[8b#X	pp	viio43	=58	a#	M6/8
=59	=59	=59	=59	=59	=59	=59	=59	=59	=59	=59	=59
8F#]	pp	8d#]	pp	8a]	pp	8b#]	pp	viio43	=59	a#	M6/8
[8E#L	pp	[8c#L	pp	[8g#L	pp	[8cc#L	pp	I6	=59	a#	M6/8
8E#'J]	pp	8c#'J]	pp	8g#'J]	pp	8cc#'J]	pp	I6	=59	a#	M6/8
[8E#L	pp	[8c##XL	pp	[8g#L	pp	[8bL	pp	#viio65/ii	=59	a#	M6/8
8E#'J]	pp	8c##'J]	pp	8g#'J]	pp	8b'J]	pp	#viio65/ii	=59	a#	M6/8
[8F#	pp	[8d#	pp	[8f#	pp	[8a#	pp	ii6	=59	a#	M6/8
=60	=60	=60	=60	=60	=60	=60	=60	=60	=60	=60	=60
8F#L]	pp	8d#L]	pp	8f#L]	pp	8a#L]	pp	ii6	=60	a#	M6/8
[8F##X	pp	[8eX	pp	[8a#	pp	[8c# [8cc#	pp	#viio7/V	=60	a#	M6/8
8F##J]	pp	8eJ]	pp	8a#J]	pp	8c#J] 8cc#]	pp	#viio7/V	=60	a#	M6/8
[8G#L	pp	[8e#L	pp	[8g#L	pp	[8c#L [8cc#	pp	I64	=60	a#	M6/8
8G#]	pp	8e#]	pp	8g#]	pp	8c#] 8cc#]	pp	I64	=60	a#	M6/8
[8AXJ	pp	[8eXJ	pp	[8f##XJ	pp	[8c#J [8cc#	pp	.Ger6	=60	a#	M6/8
=61	=61	=61	=61	=61	=61	=61	=61	=61	=61	=61	=61
8A]	pp	8e]	pp	8f##]	pp	8c#] 8cc#]	pp	.Ger6	=61	a#	M6/8
[8A#L	pp	[8eXL	pp	[8f##XL	pp	[8c#L [8cc#	pp	#viio65/V	=61	a#	M6/8
8A#J]	pp	8eJ]	pp	8f##J]	pp	8c#J] 8cc#]	pp	#viio65/V	=61	a#	M6/8
[8A#L	pp	[8eL	pp	[8f##L	pp	[8c#L [8cc#	pp	#viio65/V	=61	a#	M6/8
8A#J]	pp	8eJ]	pp	8f##J]	pp	8c#J] 8cc#]	pp	#viio65/V	=61	a#	M6/8
[8A#	pp	[8e	pp	[8f##	pp	[8c# [8cc#	pp	#viio65/V	=61	a#	M6/8
=62	=62	=62	=62	=62	=62	=62	=62	=62	=62	=62	=62
8A#]	pp	8e]	pp	8f##]	pp	8c#] 8cc#]	pp	#viio65/V	=62	a#	M6/8
[8AXL	pp	[8f##XL	pp	[8cc#L	pp	[8c#L [8eeX	pp	.Ger6	=62	a#	M6/8
8AJ]	pp	8f##J]	pp	8cc#J]	pp	8c#J] 8ee]	pp	.Ger6	=62	a#	M6/8
[8AL	pp	[8f##L	pp	[8cc#L	pp	[8c#L [8ee	pp	.Ger6	=62	a#	M6/8
8AJ]	pp	8f##J]	pp	8cc#J]	pp	8c#J] 8ee]	pp	.Ger6	=62	a#	M6/8
[8A	pp	[8f##	pp	[8cc#	pp	[8c# [8ee	pp	.Ger6	=62	a#	M6/8
=63	=63	=63	=63	=63	=63	=63	=63	=63	=63	=63	=63
8A]	pp	8f##]	pp	8cc#]	pp	8c#] 8ee]	pp	.Ger6	=63	a#	M6/8
[8G#L	pp	[8g#L	pp	[8cc#L [8ee#	pp	[8gg#L	pp	V(64)	=63	a#	M6/8
8G#J]	pp	8g#J]	pp	8cc#J] 8ee#]	pp	8gg#J]	pp	V(64)	=63	a#	M6/8
[8G#L	pp	[8g#L	pp	[8cc#L [8ee#	pp	[8gg#L	pp	V(64)	=63	a#	M6/8
8G#J]	pp	8g#J]	pp	8cc#J] 8ee#]	pp	8gg#J]	pp	V(64)	=63	a#	M6/8
[8G#	pp	[8g#	pp	[8cc# [8ee#	pp	[8gg#	pp	V(64)	=63	a#	M6/8
=64	=64	=64	=64	=64	=64	=64	=64	=64	=64	=64	=64
8G#]	pp	8g#]	pp	8cc#] 8ee#]	pp	8gg#]	pp	V(64)	=64	a#	M6/8
[8GG#L	f	[8g#L [8dd#	f	[8ff#L [8bb#	f	[8gg#L [8ggg#	f	V7	=64	a#	M6/8
8GG#J]	f	8g#J] 8dd#]	f	8ff#J] 8bb#]	f	8gg#J] 8ggg#]	f	V7	=64	a#	M6/8
[8GG#L	f	[8g#L [8dd#	f	[8ff#L [8bb#	f	[8gg#L [8ggg#	f	V7	=64	a#	M6/8
8GG#J]	f	8g#J] 8dd#]	f	8ff#J] 8bb#]	f	8gg#J] 8ggg#]	f	V7	=64	a#	M6/8
8GG#'	f	8g#' 8dd#	f	8ff#' 8bb#	f	8gg#' 8ggg#	f	V7	=64	a#	M6/8
=65	=65	=65	=65	=65	=65	=65	=65	=65	=65	=65	=65
16C#LL	sf	16e#LL	sf	2.r	f	(16ggg#LL	sf sf	V(64)	=65	a#	M6/8
(16GG#	sf	(16g#	sf	2.r	f	16eee#)	sf sf	V(64)	=65	a#	M6/8
16C#)	sf	16e#)	sf	2.r	f	16ccc#'	sf sf	V(64)	=65	a#	M6/8
(16GG#	sf	(16g#	sf	2.r	f	16gg#'	sf sf	V(64)	=65	a#	M6/8
16C#)	sf	16e#)	sf	2.r	f	16ee#'	sf sf	V(64)	=65	a#	M6/8
(16GG#JJ	sf	(16g#JJ	sf	2.r	f	16cc#'JJ	sf sf	V(64)	=65	a#	M6/8
16C#LL)	sf	16e#LL)	sf	2.r	f	4.g#	sf sf	V(64)	=65	a#	M6/8
(16GG#	sf	(16g#	sf	2.r	f	4.g#	sf sf	V(64)	=65	a#	M6/8
16C#)	sf	16e#)	sf	2.r	f	4.g#	sf sf	V(64)	=65	a#	M6/8
(16GG#	sf	(16g#	sf	2.r	f	4.g#	sf sf	V(64)	=65	a#	M6/8
16C#)	sf	16e#)	sf	2.r	f	4.g#	sf sf	V(64)	=65	a#	M6/8
(16GG#JJ	sf	(16g#JJ	sf	2.r	f	4.g#	sf sf	V(64)	=65	a#	M6/8
=66	=66	=66	=66	=66	=66	=66	=66	=66	=66	=66	=66
16BB#LL)	sf	16f#LL)	sf	2.r	f	(16ggg#LL	sf	V7	=66	a#	M6/8
(16GG#	sf	(16g#	sf	2.r	f	16fff#)	sf	V7	=66	a#	M6/8
16BB#)	sf	16f#)	sf	2.r	f	16ddd#'	sf	V7	=66	a#	M6/8
(16GG#	sf	(16g#	sf	2.r	f	16gg#'	sf	V7	=66	a#	M6/8
16BB#)	sf	16f#)	sf	2.r	f	16ff#'	sf	V7	=66	a#	M6/8
(16GG#JJ	sf	(16g#JJ	sf	2.r	f	16dd#'JJ	sf	V7	=66	a#	M6/8
16BB#LL)	sf	16f#LL)	sf	2.r	f	4.g#	sf	V7	=66	a#	M6/8
(16GG#	sf	(16g#	sf	2.r	f	4.g#	sf	V7	=66	a#	M6/8
16BB#)	sf	16f#)	sf	2.r	f	4.g#	sf	V7	=66	a#	M6/8
(16GG#	sf	(16g#	sf	2.r	f	4.g#	sf	V7	=66	a#	M6/8
16BB#)	sf	16f#)	sf	2.r	f	4.g#	sf	V7	=66	a#	M6/8
(16GG#JJ	sf	16g#JJ	sf	2.r	f	4.g#	sf	V7	=66	a#	M6/8
=67	=67	=67	=67	=67	=67	=67	=67	=67	=67	=67	=67
16C#LL)	sf	(16gg#LL	sf	16e#LL	sf	4r	sf	V(64)	=67	a#	M6/8
(16GG#	sf	16ee#)	sf	(16g#	sf	4r	sf	V(64)	=67	a#	M6/8
16C#)	sf	16cc#'	sf	16e#)	sf	4r	sf	V(64)	=67	a#	M6/8
(16GG#	sf	16g#'	sf	(16g#	sf	4r	sf	V(64)	=67	a#	M6/8
16C#)	sf	16e#'	sf	16e#)	sf	8r	sf	V(64)	=67	a#	M6/8
(16GG#JJ	sf	16c#'JJ	sf	(16g#JJ	sf	8r	sf	V(64)	=67	a#	M6/8
16C#LL)	sf	4.G#	sf	16e#LL)	sf	(16ggg#LL	sf	V(64)	=67	a#	M6/8
(16GG#	sf	4.G#	sf	(16g#	sf	16eee#)	sf	V(64)	=67	a#	M6/8
16C#)	sf	4.G#	sf	16e#)	sf	16ccc#'	sf	V(64)	=67	a#	M6/8
(16GG#	sf	4.G#	sf	(16g#	sf	16gg#'	sf	V(64)	=67	a#	M6/8
16C#)	sf	4.G#	sf	16e#)	sf	16ee#'	sf	V(64)	=67	a#	M6/8
(16GG#JJ	sf	4.G#	sf	(16g#JJ	sf	16cc#'JJ	sf	V(64)	=67	a#	M6/8
=68	=68	=68	=68	=68	=68	=68	=68	=68	=68	=68	=68
16BB#LL)	sf	(16gg#LL	sf	16f#LL)	sf	4.g#	sf	V7	=68	a#	M6/8
(16GG#	sf	16ff#)	sf	(16g#	sf	4.g#	sf	V7	=68	a#	M6/8
16BB#)	sf	16dd#'	sf	16f#)	sf	4.g#	sf	V7	=68	a#	M6/8
(16GG#	sf	16g#'	sf	(16g#	sf	4.g#	sf	V7	=68	a#	M6/8
16BB#)	sf	16f#'	sf	16f#)	sf	4.g#	sf	V7	=68	a#	M6/8
(16GG#JJ	sf	16d#'JJ	sf	(16g#JJ	sf	4.g#	sf	V7	=68	a#	M6/8
16BB#LL)	sf	4.G#	sf	16f#LL)	sf	(16ggg#LL	sf	V7	=68	a#	M6/8
(16GG#	sf	4.G#	sf	(16g#	sf	16fff#)	sf	V7	=68	a#	M6/8
16BB#)	sf	4.G#	sf	16f#)	sf	16ddd#'	sf	V7	=68	a#	M6/8
(16GG#	sf	4.G#	sf	(16g#	sf	16gg#'	sf	V7	=68	a#	M6/8
16BB#)	sf	4.G#	sf	16f#)	sf	16ff#'	sf	V7	=68	a#	M6/8
16GG#JJ	sf	4.G#	sf	(16g#JJ	sf	16dd#'JJ	sf	V7	=68	a#	M6/8
=69	=69	=69	=69	=69	=69	=69	=69	=69	=69	=69	=69
(16g#LL	sf	16c#LL	sf	16e#LL)	sf	4cc#	sf	I\\	=69	a#	M6/8
16e#)	sf	(16e#	sf	(16g#	sf	4cc#	sf	I\\	=69	a#	M6/8
16c#'	sf	16c#)	sf	16e#)	sf	4cc#	sf	I\\	=69	a#	M6/8
16G#'JJ	sf	(16e#	sf	(16g#	sf	4cc#	sf	I\\	=69	a#	M6/8
16E#'LL	sf	16c#)	sf	16e#)	sf	8r	sf	I\\	=69	a#	M6/8
16C#'JJ	sf	(16e#JJ	sf	(16g#JJ	sf	8r	sf	I\\	=69	a#	M6/8
4BB#	sf	16d#LL)	sf	16e#LL)	sf	(16ddd#LL	sf	V7	=69	a#	M6/8
4BB#	sf	(16e#	sf	(16g##X	sf	16bb#)	sf	V7	=69	a#	M6/8
4BB#	sf	16d#)	sf	16e#)	sf	16gg##X'	sf	V7	=69	a#	M6/8
4BB#	sf	(16e#	sf	(16g##	sf	16ee#'	sf	V7	=69	a#	M6/8
8E#	sf	16d#)	sf	16e#)	sf	16dd#'	sf	V7	=69	a#	M6/8
8E#	sf	(16e#JJ	sf	16g##JJ	sf	16b#'JJ	sf	V7	=69	a#	M6/8
=70	=70	=70	=70	=70	=70	=70	=70	=70	=70	=70	=70
4A#'	f	4c#')	f	4c#' 4a#	f	4a#' 4ee# 4aa#	f	i.i	=70	a#	M6/8
8r	f	8r	f	8r	f	8r	f	i.i	=70	a#	M6/8
4G##X'	f	4B#' 4e#	f	4e#' 4b# 4ee#	f	4ee#' 4eee#	f	V6	=70	a#	M6/8
8r	f	8r	f	8r	f	8r	f	V6	=70	a#	M6/8
=71:|!	=71:|!	=71:|!	=71:|!	=71:|!	=71:|!	=71:|!	=71:|!	=71:|!	=71:|!	=71:|!	=71:|!
(16g#LL	sf	16c#LL	f	16eXLL	f	4cc#	f	.bI.iii	=70	a#	M6/8
16eX)	sf	(16eX	f	(16g#	f	4cc#	f	.bI.iii	=70	a#	M6/8
16c#'	sf	16c#)	f	16e)	f	4cc#	f	.bI.iii	=70	a#	M6/8
16G#'JJ	sf	(16e	f	(16g#	f	4cc#	f	.bI.iii	=70	a#	M6/8
16EX'LL	sf	16c#)	f	16e)	f	8r	f	.bI.iii	=70	a#	M6/8
16C#'JJ	sf	(16eJJ	f	(16g#JJ	f	8r	f	.bI.iii	=70	a#	M6/8
4BB	sf	16dXLL)	f	16eLL)	f	(16dddXLL	sf	V43	=70	a#	M6/8
4BB	sf	(16e	f	(16g#	f	16bb)	sf	V43	=70	a#	M6/8
4BB	sf	16d)	f	16e)	f	16gg#'	sf	V43	=70	a#	M6/8
4BB	sf	(16e	f	(16g#	f	16eeX'	sf	V43	=70	a#	M6/8
8E	sf	16d)	f	16e)	f	16ddX'	sf	V7	=70	a#	M6/8
8E	sf	16eJJ	f	16g#JJ	f	16b'JJ	sf	V7	=70	a#	M6/8
=72	=72	=72	=72	=72	=72	=72	=72	=72	=72	=72	=72
4AAX'	ff	4AX'	ff	4c#' 4aX	ff	4c#' 4aX 4aaX	ff	I	=72	a#	M6/8
8r	ff	8r	ff	8r	ff	8r	ff	I	=72	a#	M6/8
4GG#'	ff	4G#'	ff	4eX' 4b	ff	4eeX' 4eeeX	ff	V6	=72	a#	M6/8
8r	ff	8r	ff	8r	ff	8r	ff	V6	=72	a#	M6/8
=73	=73	=73	=73	=73	=73	=73	=73	=73	=73	=73	=73
2.r	ff	2.r	ff	2.r	ff	2.r	ff	V6	=73	a#	M6/8
=74!|:	=74!|:	=74!|:	=74!|:	=74!|:	=74!|:	=74!|:	=74!|:	=74!|:	=74!|:	=74!|:	=74!|:
4AX'	p	4cX'	p	4eX'	p	4aX'	p	I	=73	a#	M6/8
8r	p	8r	p	8r	p	8r	p	I	=73	a#	M6/8
4G#'	p	4B'	p	4e'	p	4eeX'	p	V6	=73	a#	M6/8
8r	p	8r	p	8r	p	8r	p	V6	=73	a#	M6/8
=75	=75	=75	=75	=75	=75	=75	=75	=75	=75	=75	=75
2.r	p	2.r	p	2.r	p	2.r	p	V6	=75	a#	M6/8
=76	=76	=76	=76	=76	=76	=76	=76	=76	=76	=76	=76
(4G##X'	pp	(4B#X'	pp	(4eX'	pp	(4g##X'	pp	i	=76	a#	M6/8
8r	pp	8r	pp	8r	pp	8r	pp	i	=76	a#	M6/8
4F##X')	pp	4f##X')	pp	4a#')	pp	4dd##X')	pp	v.#viio6	=76	a#	M6/8
8r	pp	8r	pp	8r	pp	8r	pp	v.#viio6	=76	a#	M6/8
=77	=77	=77	=77	=77	=77	=77	=77	=77	=77	=77	=77
2.r	pp	2.r	pp	2.r	pp	2.r	pp	v.#viio6	=77	a#	M6/8
=78	=78	=78	=78	=78	=78	=78	=78	=78	=78	=78	=78
4E#'	ff	4B#'	ff	4g#'	ff	4g#' 4ee#	ff ff	i	=78	a#	M6/8
8r	ff	8r	ff	8r	ff	8r	ff ff	i	=78	a#	M6/8
4D##X'	ff	4B#'	ff	4f##X' 4b#	ff	[8bb# 8b# 8ff##X	sf >	V6	=78	a#	M6/8
4D##X'	ff	4B#'	ff	4f##X' 4b#	ff	8rff	sf >	V6	=78	a#	M6/8
8r	ff	8r	ff	8r	ff	8rff	sf >	V6	=78	a#	M6/8
=79	=79	=79	=79	=79	=79	=79	=79	=79	=79	=79	=79
2.r	ff	2.r	ff	2.r	ff	2.bb#_	]]	V6	=79	a#	M6/8
=80	=80	=80	=80	=80	=80	=80	=80	=80	=80	=80	=80
(8E#L	pp	4r	ff	4r	ff	2.bb#_	pp	i	=80	a#	M6/8
8BB#X	pp	4r	ff	4r	ff	2.bb#_	pp	i	=80	a#	M6/8
8G#J	pp	8r	ff	8r	ff	2.bb#_	pp	i	=80	a#	M6/8
[4.B#X)	pp	4r	ff	4r	ff	2.bb#_	pp	i	=80	a#	M6/8
[4.B#X)	pp	(8e#	pp	(8g#	pp	2.bb#_	pp	i	=80	a#	M6/8
=81	=81	=81	=81	=81	=81	=81	=81	=81	=81	=81	=81
(4.B#]	pp	4d##X	pp	4f##X	pp	(16bb#LL]	pp	V7	=81	a#	M6/8
(4.B#]	pp	4d##X	pp	4f##X	pp	16ccc#	pp	V7	=81	a#	M6/8
(4.B#]	pp	4d##X	pp	4f##X	pp	16aa#	pp	V7	=81	a#	M6/8
(4.B#]	pp	4d##X	pp	4f##X	pp	16ff##X	pp	V7	=81	a#	M6/8
(4.B#]	pp	8f##X	pp	8a#	pp	16dd##X	pp	V7	=81	a#	M6/8
(4.B#]	pp	8f##X	pp	8a#	pp	16b#JJ	pp	V7	=81	a#	M6/8
4c#)	pp	4e#)	pp	4g#)	pp	4ee#)	pp	VI	=81	a#	M6/8
8r	pp	8r	pp	8r	pp	8r	pp	VI	=81	a#	M6/8
=82	=82	=82	=82	=82	=82	=82	=82	=82	=82	=82	=82
2.r	pp	2.r	pp	2.r	pp	2.r	pp	VI	=82	a#	M6/8
=83	=83	=83	=83	=83	=83	=83	=83	=83	=83	=83	=83
(8F#L	pp	4r	pp	4r	pp	4r	pp	vi.i	=83	a#	M6/8
8C#	pp	4r	pp	4r	pp	4r	pp	vi.i	=83	a#	M6/8
8AXJ	pp	8r	pp	8r	pp	8r	pp	vi.i	=83	a#	M6/8
[4.c#)	pp	4r	pp	4r	pp	4r	pp	vi.i	=83	a#	M6/8
[4.c#)	pp	(8f#	pp	(8aX	pp	[8ccc#	pp	vi.i	=83	a#	M6/8
=84	=84	=84	=84	=84	=84	=84	=84	=84	=84	=84	=84
4.c#]	pp	4e#	pp	4g#	pp	(16ccc#LL]	pp	V7	=84	a#	M6/8
4.c#]	pp	4e#	pp	4g#	pp	16dddX	pp	V7	=84	a#	M6/8
4.c#]	pp	4e#	pp	4g#	pp	16bb	pp	V7	=84	a#	M6/8
4.c#]	pp	4e#	pp	4g#	pp	16gg#	pp	V7	=84	a#	M6/8
4.c#]	pp	8g#	pp	8b	pp	16ee#	pp	V7	=84	a#	M6/8
4.c#]	pp	8g#	pp	8b	pp	16cc#JJ	pp	V7	=84	a#	M6/8
[4.dX	pp	[4.f#)	pp	[4.aX)	pp	[4.ff#)	pp	VI	=84	a#	M6/8
=85	=85	=85	=85	=85	=85	=85	=85	=85	=85	=85	=85
4.d]	pp	2.f#_	pp	[2.dX 2.a_	pp	(8ff#L]	pp	VI	=85	a#	M6/8
4.d]	pp	2.f#_	pp	[2.dX 2.a_	pp	8ddX	pp	VI	=85	a#	M6/8
4.d]	pp	2.f#_	pp	[2.dX 2.a_	pp	8aaXJ)	pp	VI	=85	a#	M6/8
(8DXL	pp	2.f#_	pp	[2.dX 2.a_	pp	[4.dddX	pp	VI	=85	a#	M6/8
8AAX	pp	2.f#_	pp	[2.dX 2.a_	pp	[4.dddX	pp	VI	=85	a#	M6/8
8F#J)	pp	2.f#_	pp	[2.dX 2.a_	pp	[4.dddX	pp	VI	=85	a#	M6/8
=86	=86	=86	=86	=86	=86	=86	=86	=86	=86	=86	=86
[4.AX	pp	(4.f#]	pp	4.d] 4.a_	pp	(16dddLL]	pp	.bIV.I64	=86	a#	M6/8
[4.AX	pp	(4.f#]	pp	4.d] 4.a_	pp	16aaX	pp	.bIV.I64	=86	a#	M6/8
[4.AX	pp	(4.f#]	pp	4.d] 4.a_	pp	16ff#	pp	.bIV.I64	=86	a#	M6/8
[4.AX	pp	(4.f#]	pp	4.d] 4.a_	pp	16ddXJJ	pp	.bIV.I64	=86	a#	M6/8
[4.AX	pp	(4.f#]	pp	4.d] 4.a_	pp	16aXLL	pp	.bIV.I64	=86	a#	M6/8
[4.AX	pp	(4.f#]	pp	4.d] 4.a_	pp	16f#JJ)	pp	.bIV.I64	=86	a#	M6/8
(8AL]	pp	[4.eX)	pp	4.c# 4.a_	pp	(8aL	pp	V7	=86	a#	M6/8
16BL	pp	[4.eX)	pp	4.c# 4.a_	pp	8gX)	pp	V7	=86	a#	M6/8
16GX	pp	[4.eX)	pp	4.c# 4.a_	pp	8gX)	pp	V7	=86	a#	M6/8
16EX	pp	[4.eX)	pp	4.c# 4.a_	pp	8g'J	pp	V7	=86	a#	M6/8
16C#JJ)	pp	[4.eX)	pp	4.c# 4.a_	pp	8g'J	pp	V7	=86	a#	M6/8
=87	=87	=87	=87	=87	=87	=87	=87	=87	=87	=87	=87
(8BBL	pp	2.e_	pp	[2.c# 2.a_	pp	(8ggXL	pp	V7	=87	a#	M6/8
8AAX)	pp	2.e_	pp	[2.c# 2.a_	pp	8eeX	pp	V7	=87	a#	M6/8
8AA'J	pp	2.e_	pp	[2.c# 2.a_	pp	8ccc#J)	pp	V7	=87	a#	M6/8
(8EXL	pp	2.e_	pp	[2.c# 2.a_	pp	[4.eeeX	pp	V7	=87	a#	M6/8
8AA	pp	2.e_	pp	[2.c# 2.a_	pp	[4.eeeX	pp	V7	=87	a#	M6/8
8GXJ)	pp	2.e_	pp	[2.c# 2.a_	pp	[4.eeeX	pp	V7	=87	a#	M6/8
=88	=88	=88	=88	=88	=88	=88	=88	=88	=88	=88	=88
[4.AX	pp	4.e]	pp	4.c#] 4.a_	pp	(16eeeLL]	pp	V7	=88	a#	M6/8
[4.AX	pp	4.e]	pp	4.c#] 4.a_	pp	16ccc#	pp	V7	=88	a#	M6/8
[4.AX	pp	4.e]	pp	4.c#] 4.a_	pp	16ggX	pp	V7	=88	a#	M6/8
[4.AX	pp	4.e]	pp	4.c#] 4.a_	pp	16eeX	pp	V7	=88	a#	M6/8
[4.AX	pp	4.e]	pp	4.c#] 4.a_	pp	16cc#	pp	V7	=88	a#	M6/8
[4.AX	pp	4.e]	pp	4.c#] 4.a_	pp	16aXJJ)	pp	V7	=88	a#	M6/8
(8AL]	pp	[4.f#	pp	[4.dX 4.a_	pp	(8gXL	pp	I64	=88	a#	M6/8
16f#L	pp	[4.f#	pp	[4.dX 4.a_	pp	8f#)	pp	I64	=88	a#	M6/8
16dX	pp	[4.f#	pp	[4.dX 4.a_	pp	8f#)	pp	I64	=88	a#	M6/8
16A	pp	[4.f#	pp	[4.dX 4.a_	pp	8f#'J	pp	I64	=88	a#	M6/8
16F#JJ)	pp	[4.f#	pp	[4.dX 4.a_	pp	8f#'J	pp	I64	=88	a#	M6/8
=89	=89	=89	=89	=89	=89	=89	=89	=89	=89	=89	=89
(8EXL	pp	4.f#]	pp	4.d] 4.a]	pp	(8ff#L	pp	I	=89	a#	M6/8
8DX)	pp	4.f#]	pp	4.d] 4.a]	pp	8ddX	pp	I	=89	a#	M6/8
8D'J	pp	4.f#]	pp	4.d] 4.a]	pp	[8aaXJ)	pp	I	=89	a#	M6/8
(8DL	pp	8dXL	pp	(8f#L	pp	(8aaL]	pp	V2/IV	=89	a#	M6/8
8CX)	pp	8AX	pp	8dX	pp	8ff#	pp	V2/IV	=89	a#	M6/8
8C'J	pp	[8f#J	pp	[8aXJ)	pp	[8cccXJ)	pp	V2/IV	=89	a#	M6/8
=90	=90	=90	=90	=90	=90	=90	=90	=90	=90	=90	=90
(8CXL	pp	(8f#L]	pp	(8aL]	pp	8cccL]	pp	V2/IV	=90	a#	M6/8
8BB)	pp	8d#	pp	8f#	pp	(16cccXL	pp	V9/ii	=90	a#	M6/8
8BB)	pp	8d#	pp	8f#	pp	16aaX	pp	V9/ii	=90	a#	M6/8
8BB'J	pp	8aXJ)	pp	8ccXJ)	pp	16ff#	pp	V9/ii	=90	a#	M6/8
8BB'J	pp	8aXJ)	pp	8ccXJ)	pp	16eeXJJ)	pp	V9/ii	=90	a#	M6/8
8BBL	pp	(8f#L	pp	(8aXL	pp	8dd#'L	pp	V9/ii	=90	a#	M6/8
8BB	pp	8d#	pp	8f#	pp	(16cccL	pp	V9/ii	=90	a#	M6/8
8BB	pp	8d#	pp	8f#	pp	16aa	pp	V9/ii	=90	a#	M6/8
8BBJ	pp	8aJ)	pp	8bJ)	pp	16ff#	pp	V9/ii	=90	a#	M6/8
8BBJ	pp	8aJ)	pp	8bJ)	pp	16dd#JJ)	pp	V9/ii	=90	a#	M6/8
=91	=91	=91	=91	=91	=91	=91	=91	=91	=91	=91	=91
[2.BB	pp	4r	pp	(8gXL	pp	8eeX'L	pp	ii64	=91	a#	M6/8
[2.BB	pp	4r	pp	8eX	pp	(16eeeXL	pp	ii64	=91	a#	M6/8
[2.BB	pp	4r	pp	8eX	pp	16bb	pp	ii64	=91	a#	M6/8
[2.BB	pp	8r	pp	8bJ	pp	16ggX	pp	ii64	=91	a#	M6/8
[2.BB	pp	8r	pp	8bJ	pp	16eeJJ)	pp	ii64	=91	a#	M6/8
[2.BB	pp	(8f#L	pp	4ccX	pp	8dd#'L	pp	ii64	=91	a#	M6/8
[2.BB	pp	8B	pp	4ccX	pp	(16cccXL	pp	ii64	=91	a#	M6/8
[2.BB	pp	8B	pp	4ccX	pp	16aaX	pp	ii64	=91	a#	M6/8
[2.BB	pp	8aXJ)	pp	8b)	pp	16ff#	pp	ii64	=91	a#	M6/8
[2.BB	pp	8aXJ)	pp	8b)	pp	16dd#JJ)	pp	ii64	=91	a#	M6/8
=92	=92	=92	=92	=92	=92	=92	=92	=92	=92	=92	=92
2.BB]	pp	4r	pp	(8gXL	pp	(16eeXLL	pp	ii64	=92	a#	M6/8
2.BB]	pp	4r	pp	(8gXL	pp	16bb	pp	ii64	=92	a#	M6/8
2.BB]	pp	4r	pp	8eX	pp	16eeeX	pp	ii64	=92	a#	M6/8
2.BB]	pp	4r	pp	8eX	pp	16bb	pp	ii64	=92	a#	M6/8
2.BB]	pp	(8gX	pp	8bJ	pp	16ggX	pp	ii64	=92	a#	M6/8
2.BB]	pp	(8gX	pp	8bJ	pp	16eeJJ)	pp	ii64	=92	a#	M6/8
2.BB]	pp	8f#L	pp	4ccX	pp	(16dd#LL	pp	V7(+2)/ii	=92	a#	M6/8
2.BB]	pp	8f#L	pp	4ccX	pp	16aaX	pp	V7(+2)/ii	=92	a#	M6/8
2.BB]	pp	8B	pp	4ccX	pp	16cccX	pp	V7(+2)/ii	=92	a#	M6/8
2.BB]	pp	8B	pp	4ccX	pp	16aa	pp	V7(+2)/ii	=92	a#	M6/8
2.BB]	pp	8aXJ)	pp	8b)	pp	16ff#	pp	V7(+2)/ii	=92	a#	M6/8
2.BB]	pp	8aXJ)	pp	8b)	pp	16dd#JJ)	pp	V7(+2)/ii	=92	a#	M6/8
=93	=93	=93	=93	=93	=93	=93	=93	=93	=93	=93	=93
8BBL	pp	8gXL	pp	8r	pp pp	8eeX	pp	ii64	=93	a#	M6/8
8r	pp	8r	pp	4eeX	pp pp	4ggX	pp	ii64	=93	a#	M6/8
8BBJ	pp	8BJ	pp	4eeX	pp pp	4ggX	pp	ii64	=93	a#	M6/8
8r	pp	8r	pp	4ee	pp pp	4gg	pp	ii64	=93	a#	M6/8
8BB	pp	8B	pp	4ee	pp pp	4gg	pp	ii64	=93	a#	M6/8
8r	pp	8r	pp	[8ee	pp pp	[8gg	pp	ii64	=93	a#	M6/8
=94	=94	=94	=94	=94	=94	=94	=94	=94	=94	=94	=94
8BBL	pp	8BL	pp	8ee]	pp pp	8gg]	pp	ii64	=94	a#	M6/8
8r	pp	8r	pp	4eeX	pp pp	4ggX	pp	ii64	=94	a#	M6/8
8BBJ	pp	8BJ	pp	4eeX	pp pp	4ggX	pp	ii64	=94	a#	M6/8
8r	pp	8r	pp	4ee	pp pp	4gg	pp	ii64	=94	a#	M6/8
8BB	pp	8B	pp	4ee	pp pp	4gg	pp	ii64	=94	a#	M6/8
8r	pp	8r	pp	[8ee	pp pp	[8gg	pp	ii64	=94	a#	M6/8
=95	=95	=95	=95	=95	=95	=95	=95	=95	=95	=95	=95
8CXL	pp	8cXL	pp	8ee]	pp pp	8gg]	pp	.bVII	=95	a#	M6/8
8r	pp	8r	pp	4eeX	pp pp	4ggX	pp	.bVII	=95	a#	M6/8
8CJ	pp	8cJ	pp	4eeX	pp pp	4ggX	pp	.bVII	=95	a#	M6/8
8r	pp	8r	pp	4ee	pp pp	4gg	pp	.bVII	=95	a#	M6/8
8C	pp	8c	pp	4ee	pp pp	4gg	pp	.bVII	=95	a#	M6/8
8r	pp	8r	pp	[8ee	pp pp	[8gg	pp	.bVII	=95	a#	M6/8
=96	=96	=96	=96	=96	=96	=96	=96	=96	=96	=96	=96
8CXL	pp	8cXL	pp	8ee]	pp pp	8gg]	pp	.bVII	=96	a#	M6/8
8r	pp	8r	pp	4eeX	pp pp	4ggX	pp	.bVII	=96	a#	M6/8
8CJ	pp	8cJ	pp	4eeX	pp pp	4ggX	pp	.bVII	=96	a#	M6/8
8r	pp	8r	pp	4ee	pp pp	4gg	pp	.bVII	=96	a#	M6/8
4C	pp	8c	pp	4ee	pp pp	4gg	pp	.bVII	=96	a#	M6/8
4C	pp	8r	pp	[8ee	pp pp	[8gg	pp	.bVII	=96	a#	M6/8
=97	=97	=97	=97	=97	=97	=97	=97	=97	=97	=97	=97
8B#XL	pp	8cc#	pp	8ee]	pp pp	8gg]	pp	v.V7	=97	a#	M6/8
8r	pp	4cc#	pp	4eeX	pp pp	4ff##X 4aa#	pp	v.V7	=97	a#	M6/8
8B#J	pp	4cc#	pp	4eeX	pp pp	4ff##X 4aa#	pp	v.V7	=97	a#	M6/8
8r	pp	4cc#	pp	4ee	pp pp	4ff## 4aa#	pp	v.V7	=97	a#	M6/8
8B#	pp	4cc#	pp	4ee	pp pp	4ff## 4aa#	pp	v.V7	=97	a#	M6/8
8r	pp	[8cc#	pp	[8ee	pp pp	[8ff## [8aa#	pp	v.V7	=97	a#	M6/8
=98	=98	=98	=98	=98	=98	=98	=98	=98	=98	=98	=98
8B#XL	f	8cc#]	pp	8ee]	pp pp	8ff##] 8aa#]	pp	v.V7	=98	a#	M6/8
8r	f	4a#	f	4ccc#	f	4ff##X 4ddd##X	f	v.V7	=98	a#	M6/8
8B#J	f	4a#	f	4ccc#	f	4ff##X 4ddd##X	f	v.V7	=98	a#	M6/8
8r	f	4a#	f	4ccc#	f	4ff## 4ddd##	f	v.V7	=98	a#	M6/8
8B#	f	4a#	f	4ccc#	f	4ff## 4ddd##	f	v.V7	=98	a#	M6/8
8r	f	8a#	f	8bb#	f	8ff## 8ddd##	f	v.V7	=98	a#	M6/8
=99	=99	=99	=99	=99	=99	=99	=99	=99	=99	=99	=99
[2.B#	p	4g#	p	8bb#X	p	8gg#L 8eee#	p	V(64)	=99	a#	M6/8
[2.B#	p	4g#	p	(8e#L	p	(16eee#L	p	V(64)	=99	a#	M6/8
[2.B#	p	4g#	p	(8e#L	p	16bb#	p	V(64)	=99	a#	M6/8
[2.B#	p	8rA	p	8b#J	p	16gg#	p	V(64)	=99	a#	M6/8
[2.B#	p	8rA	p	8b#J	p	16ee#JJ)	p	V(64)	=99	a#	M6/8
[2.B#	p	(8f##XL	p	4cc#	p	8dd##X'L	p	V7	=99	a#	M6/8
[2.B#	p	8B#	p	4cc#	p	16ccc#L	p	V7	=99	a#	M6/8
[2.B#	p	8B#	p	4cc#	p	16aa#	p	V7	=99	a#	M6/8
[2.B#	p	8a#J)	p	8b#)	p	16ff##X	p	V7	=99	a#	M6/8
[2.B#	p	8a#J)	p	8b#)	p	16dd##JJ	p	V7	=99	a#	M6/8
=100	=100	=100	=100	=100	=100	=100	=100	=100	=100	=100	=100
2.B#]	p	8r	p	(8g#L	p	(16ee#LL	p	V(64)	=100	a#	M6/8
2.B#]	p	8r	p	(8g#L	p	16bb#	p	V(64)	=100	a#	M6/8
2.B#]	p	8r	p	8e#	p	16eee#	p	V(64)	=100	a#	M6/8
2.B#]	p	8r	p	8e#	p	16bb#	p	V(64)	=100	a#	M6/8
2.B#]	p	(8g#	p	8b#J	p	16gg#	p	V(64)	=100	a#	M6/8
2.B#]	p	(8g#	p	8b#J	p	16ee#JJ)	p	V(64)	=100	a#	M6/8
2.B#]	p	8f##XL	p	4cc#	p	(16dd##XLL	p	V7(+2)	=100	a#	M6/8
2.B#]	p	8f##XL	p	4cc#	p	16aa#	p	V7(+2)	=100	a#	M6/8
2.B#]	p	8B#	p	4cc#	p	16ccc#	p	V7(+2)	=100	a#	M6/8
2.B#]	p	8B#	p	4cc#	p	16aa#	p	V7(+2)	=100	a#	M6/8
2.B#]	p	8a#J)	p	8b#)	p	16ff##X	p	V7(+2)	=100	a#	M6/8
2.B#]	p	8a#J)	p	8b#)	p	16dd##JJ)	p	V7(+2)	=100	a#	M6/8
=101	=101	=101	=101	=101	=101	=101	=101	=101	=101	=101	=101
8B#L	pp	8g#L	pp	8b#	pp	8ee#	pp	V(64)	=101	a#	M6/8
8r	pp	8r	pp	4ee#	pp	4gg#	pp	V(64)	=101	a#	M6/8
8B#J	pp	8b#J	pp	4ee#	pp	4gg#	pp	V(64)	=101	a#	M6/8
8r	pp	8r	pp	4ee#	pp	4gg#	pp	V(64)	=101	a#	M6/8
8B#	pp	8b#	pp	4ee#	pp	4gg#	pp	V(64)	=101	a#	M6/8
8r	pp	8r	pp	[8ee#	pp	[8gg#	pp	V(64)	=101	a#	M6/8
=102	=102	=102	=102	=102	=102	=102	=102	=102	=102	=102	=102
8B#L	pp	8b#L	pp	8ee#]	pp	8gg#]	pp	V(64)	=102	a#	M6/8
8r	pp	8r	pp	4ee#	pp	4gg#	pp	V(64)	=102	a#	M6/8
8B#J	pp	8b#J	pp	4ee#	pp	4gg#	pp	V(64)	=102	a#	M6/8
8r	pp	8r	pp	4ee#	pp	4gg#	pp	V(64)	=102	a#	M6/8
8B#	pp	8b#	pp	4ee#	pp	4gg#	pp	V(64)	=102	a#	M6/8
8r	pp	8r	pp	8ee#	pp	[8gg#	pp	V(64)	=102	a#	M6/8
=103	=103	=103	=103	=103	=103	=103	=103	=103	=103	=103	=103
8B#L	pp	8dd#	pp	8ff#	pp	8gg#]	pp	VI.V65/V	=103	a#	M6/8
8r	pp	4dd#	pp	4ff#	pp	4gg#	pp	VI.V65/V	=103	a#	M6/8
8B#J	pp	4dd#	pp	4ff#	pp	4gg#	pp	VI.V65/V	=103	a#	M6/8
8r	pp	4dd#	pp	4ff#	pp	4gg#	pp	VI.V65/V	=103	a#	M6/8
8B#	pp	4dd#	pp	4ff#	pp	4gg#	pp	VI.V65/V	=103	a#	M6/8
8r	pp	[8dd#	pp	[8ff#	pp	[8gg#	pp	VI.V65/V	=103	a#	M6/8
=104	=104	=104	=104	=104	=104	=104	=104	=104	=104	=104	=104
8B#L	pp	8dd#]	pp	8ff#]	pp	8gg#]	pp	VI.V65/V	=104	a#	M6/8
8r	pp	4dd#	pp	4ff#	pp	4gg#	pp	VI.V65/V	=104	a#	M6/8
8B#J	pp	4dd#	pp	4ff#	pp	4gg#	pp	VI.V65/V	=104	a#	M6/8
8r	pp	4dd#	pp	4ff#	pp	4gg#	pp	VI.V65/V	=104	a#	M6/8
8B#	pp	4dd#	pp	4ff#	pp	4gg#	pp	VI.V65/V	=104	a#	M6/8
8r	pp	8dd#	pp	8ff#	pp	[8gg#	pp	VI.V65/V	=104	a#	M6/8
=105	=105	=105	=105	=105	=105	=105	=105	=105	=105	=105	=105
8BL	pp	8cc#	pp	8ee#	pp	8gg#]	pp	V2	=105	a#	M6/8
8r	pp	4cc#	pp	4ee#	pp	4gg#	pp	V2	=105	a#	M6/8
8BJ	pp	4cc#	pp	4ee#	pp	4gg#	pp	V2	=105	a#	M6/8
8r	pp	4cc#	pp	4ee#	pp	4gg#	pp	V2	=105	a#	M6/8
8B	pp	4cc#	pp	4ee#	pp	4gg#	pp	V2	=105	a#	M6/8
8r	pp	8cc#	pp	[8ee#	pp	[8gg#	pp	V2	=105	a#	M6/8
=106	=106	=106	=106	=106	=106	=106	=106	=106	=106	=106	=106
8G#L	pp	8g# 8b	pp	8cc# 8ee#]	pp	8gg#]	pp	V43	=106	a#	M6/8
8r	pp	4g# 4b	pp	4cc# 4ee#	pp	4bb	pp	V43	=106	a#	M6/8
8G#J	pp	4g# 4b	pp	4cc# 4ee#	pp	4bb	pp	V43	=106	a#	M6/8
8r	pp	4g# 4b	pp	4cc# 4ee#	pp	4bb	pp	V43	=106	a#	M6/8
8G#	pp	4g# 4b	pp	4cc# 4ee#	pp	4bb	pp	V43	=106	a#	M6/8
8r	pp	[8g# [8b	pp	([8cc# 8ee#	pp	[8bb	pp	V43	=106	a#	M6/8
=107	=107	=107	=107	=107	=107	=107	=107	=107	=107	=107	=107
8E#L	f	8g#] 8b]	f	8cc#]) 8gg#	f	8bb]	f	V65	=107	a#	M6/8
8r	f	4g# 4b	f	4cc# 4gg#	f	4bb	f	V65	=107	a#	M6/8
8E#J	f	4g# 4b	f	4cc# 4gg#	f	4bb	f	V65	=107	a#	M6/8
8r	f	4g# 4b	f	4cc# 4gg#	f	4bb	f	V65	=107	a#	M6/8
8E#	f	4g# 4b	f	4cc# 4gg#	f	4bb	f	V65	=107	a#	M6/8
8r	f	8g# 8b	f	8cc# 8gg#	f	[8bb	f	V65	=107	a#	M6/8
=108	=108	=108	=108	=108	=108	=108	=108	=108	=108	=108	=108
8C#L	f	8c# 8g#	f	8e#	f	8bb]	f	V7	=108	a#	M6/8
8r	f	4c# 4g#	f	4bb	f	4eee#	f	V7	=108	a#	M6/8
8C#J	f	4c# 4g#	f	4bb	f	4eee#	f	V7	=108	a#	M6/8
8r	f	4c# 4g#	f	4bb	f	4eee#	f	V7	=108	a#	M6/8
8C#	f	4c# 4g#	f	4bb	f	4eee#	f	V7	=108	a#	M6/8
8r	f	8c# 8g#	f	8bb	f	8eee#	f	V7	=108	a#	M6/8
=109	=109	=109	=109	=109	=109	=109	=109	=109	=109	=109	=109
4FF#'	ff	4F#' 4f#	ff	16aa#LL	ff	16fff#LL	ff	I	=109	a#	M6/8
4FF#'	ff	4F#' 4f#	ff	16gg#	ff	16eee#	ff	I	=109	a#	M6/8
4FF#'	ff	4F#' 4f#	ff	16aa#	ff	16fff#	ff	I	=109	a#	M6/8
4FF#'	ff	4F#' 4f#	ff	16ccc#	ff	16aaa#	ff	I	=109	a#	M6/8
8r	ff	8r	ff	16bb	ff	16ggg#	ff	I	=109	a#	M6/8
8r	ff	8r	ff	16aa#JJ	ff	16fff#JJ	ff	I	=109	a#	M6/8
4C#'	ff	8c#' 8cc#	ff	16gg#LL	ff	16eee#LL	ff	V	=109	a#	M6/8
4C#'	ff	8c#' 8cc#	ff	16aa#	ff	16fff#	ff	V	=109	a#	M6/8
4C#'	ff	16r	ff	16gg#	ff	16eee#	ff	V	=109	a#	M6/8
4C#'	ff	16aa#LL	ff	16ff#	ff	16ddd#	ff	V	=109	a#	M6/8
8r	ff	16gg#	ff	16ee#	ff	16ccc#	ff	V	=109	a#	M6/8
8r	ff	16aa#JJ	ff	16ff#JJ	ff	16ddd#JJ	ff	V	=109	a#	M6/8
=110	=110	=110	=110	=110	=110	=110	=110	=110	=110	=110	=110
2.r	ff	16gg#LL	ff	16ee#LL	ff	16ccc#LL	ff	@none	=110	a#	M6/8
2.r	ff	16ff#	ff	16dd#	ff	16bb	ff	@none	=110	a#	M6/8
2.r	ff	16ee#	ff	16cc#	ff	16aa#	ff	@none	=110	a#	M6/8
2.r	ff	16ff#	ff	16dd#	ff	16bb	ff	@none	=110	a#	M6/8
2.r	ff	16ee#	ff	16cc#	ff	16aa#	ff	@none	=110	a#	M6/8
2.r	ff	16dd#JJ	ff	16bJJ	ff	16gg#JJ	ff	@none	=110	a#	M6/8
2.r	ff	16cc#LL	ff	16a#LL	ff	16ff#LL	ff	@none	=110	a#	M6/8
2.r	ff	16dd#	ff	16b	ff	16gg#	ff	@none	=110	a#	M6/8
2.r	ff	16cc#	ff	16a#	ff	16ff#	ff	@none	=110	a#	M6/8
2.r	ff	16b	ff	16g#	ff	16ee#	ff	@none	=110	a#	M6/8
2.r	ff	16a#	ff	16f#	ff	16dd#	ff	@none	=110	a#	M6/8
2.r	ff	16bJJ	ff	16g#JJ	ff	16ee#JJ	ff	@none	=110	a#	M6/8
=111	=111	=111	=111	=111	=111	=111	=111	=111	=111	=111	=111
16f#LL	ff	16a#LL	ff	4f#'	ff	4ff#'	ff	I	=111	a#	M6/8
16e#	ff	16g#	ff	4f#'	ff	4ff#'	ff	I	=111	a#	M6/8
16f#	ff	16a#	ff	4f#'	ff	4ff#'	ff	I	=111	a#	M6/8
16a#	ff	16cc#	ff	4f#'	ff	4ff#'	ff	I	=111	a#	M6/8
16g#	ff	16b	ff	8r	ff	8r	ff	I	=111	a#	M6/8
16f#JJ	ff	16a#JJ	ff	8r	ff	8r	ff	I	=111	a#	M6/8
16e#LL	ff	16g#LL	ff	4cc#'	ff	4ccc#'	ff	V6	=111	a#	M6/8
16f#	ff	16a#	ff	4cc#'	ff	4ccc#'	ff	V6	=111	a#	M6/8
16g#	ff	16b	ff	4cc#'	ff	4ccc#'	ff	V6	=111	a#	M6/8
16f#	ff	16a#	ff	4cc#'	ff	4ccc#'	ff	V6	=111	a#	M6/8
16e#	ff	16g#	ff	8r	ff	8r	ff	V6	=111	a#	M6/8
16f#JJ	ff	16a#JJ	ff	8r	ff	8r	ff	V6	=111	a#	M6/8
=112	=112	=112	=112	=112	=112	=112	=112	=112	=112	=112	=112
16e#LL	ff	16g#LL	ff	2.r	ff	4r	ff	V6	=112	a#	M6/8
16d#	ff	16f#	ff	2.r	ff	4r	ff	V6	=112	a#	M6/8
16c#	ff	16e#	ff	2.r	ff	4r	ff	V6	=112	a#	M6/8
16d#	ff	16f#	ff	2.r	ff	4r	ff	V6	=112	a#	M6/8
16c#	ff	16e#	ff	2.r	ff	8r	ff	V6	=112	a#	M6/8
16BJJ	ff	16d#JJ	ff	2.r	ff	8r	ff	V6	=112	a#	M6/8
16A#LL	ff	16c#LL	ff	2.r	ff	4r	ff	I6	=112	a#	M6/8
16B	ff	16d#	ff	2.r	ff	4r	ff	I6	=112	a#	M6/8
16A#	ff	16c#	ff	2.r	ff	4r	ff	I6	=112	a#	M6/8
16G#	ff	16B	ff	2.r	ff	4r	ff	I6	=112	a#	M6/8
16F#	ff	16A#	ff	2.r	ff	8ccc##X	ff	iv.#viio65	=112	a#	M6/8
16E#JJ	ff	16G#JJ	ff	2.r	ff	8ccc##X	ff	iv.#viio65	=112	a#	M6/8
=113	=113	=113	=113	=113	=113	=113	=113	=113	=113	=113	=113
4D#	ff	4F# 4d#	ff	16ff#LL	ff	16ddd#LL	ff	i	=113	a#	M6/8
4D#	ff	4F# 4d#	ff	16ee#	ff	16ccc##X	ff	i	=113	a#	M6/8
4D#	ff	4F# 4d#	ff	16ff#	ff	16ddd#	ff	i	=113	a#	M6/8
4D#	ff	4F# 4d#	ff	16aa#	ff	16fff#	ff	i	=113	a#	M6/8
8r	ff	8r	ff	16gg#	ff	16eee#	ff	i	=113	a#	M6/8
8r	ff	8r	ff	16ff#JJ	ff	16ddd#JJ	ff	i	=113	a#	M6/8
4A#	ff	8a#	ff	16ee#LL	ff	16ccc##LL	ff	V	=113	a#	M6/8
4A#	ff	8a#	ff	16ff#	ff	16ddd#	ff	V	=113	a#	M6/8
4A#	ff	16r	ff	16ee#	ff	16ccc##	ff	V	=113	a#	M6/8
4A#	ff	16ff#LL	ff	16dd#	ff	16bb	ff	V	=113	a#	M6/8
8r	ff	16ee#	ff	16cc##X	ff	16aa#	ff	V	=113	a#	M6/8
8r	ff	16ff#JJ	ff	16dd#JJ	ff	16bbJJ	ff	V	=113	a#	M6/8
=114	=114	=114	=114	=114	=114	=114	=114	=114	=114	=114	=114
2.r	ff	16ee#LL	ff	16cc#LL	ff	16aa#LL	ff	V	=114	a#	M6/8
2.r	ff	16dd#	ff	16b	ff	16gg#	ff	V	=114	a#	M6/8
2.r	ff	16cc#	ff	16a#	ff	16ff#	ff	V	=114	a#	M6/8
2.r	ff	16dd#	ff	16b	ff	16gg#	ff	V	=114	a#	M6/8
2.r	ff	16cc#	ff	16a#	ff	16ff#	ff	V	=114	a#	M6/8
2.r	ff	16bJJ	ff	16g#JJ	ff	16ee#JJ	ff	V	=114	a#	M6/8
2.r	ff	16a#LL	ff	16f#LL	ff	16dd#LL	ff	i6	=114	a#	M6/8
2.r	ff	16b	ff	16g#	ff	16ee#	ff	i6	=114	a#	M6/8
2.r	ff	16a#	ff	16f#	ff	16dd#	ff	i6	=114	a#	M6/8
2.r	ff	16g#	ff	16e#	ff	16cc##X	ff	i6	=114	a#	M6/8
2.r	ff	16f#	ff	16d#	ff	16b#X	ff	i6	=114	a#	M6/8
2.r	ff	16g#JJ	ff	16e#JJ	ff	16cc##JJ	ff	i6	=114	a#	M6/8
=115	=115	=115	=115	=115	=115	=115	=115	=115	=115	=115	=115
16d#LL	ff	16f#LL	ff	4d#	ff	4dd#	ff	i	=115	a#	M6/8
16c##X	ff	16e#	ff	4d#	ff	4dd#	ff	i	=115	a#	M6/8
16d#	ff	16f#	ff	4d#	ff	4dd#	ff	i	=115	a#	M6/8
16f#	ff	16a#	ff	4d#	ff	4dd#	ff	i	=115	a#	M6/8
16e#	ff	16g#	ff	8r	ff	8r	ff	i	=115	a#	M6/8
16d#JJ	ff	16f#JJ	ff	8r	ff	8r	ff	i	=115	a#	M6/8
16c##LL	ff	16e#LL	ff	4a#	ff	4aa#	ff	V6	=115	a#	M6/8
16d#	ff	16f#	ff	4a#	ff	4aa#	ff	V6	=115	a#	M6/8
16c##	ff	16e#	ff	4a#	ff	4aa#	ff	V6	=115	a#	M6/8
16B	ff	16d#	ff	4a#	ff	4aa#	ff	V6	=115	a#	M6/8
16A#	ff	16c##X	ff	8r	ff	8r	ff	V6	=115	a#	M6/8
16BJJ	ff	16d#JJ	ff	8r	ff	8r	ff	V6	=115	a#	M6/8
=116	=116	=116	=116	=116	=116	=116	=116	=116	=116	=116	=116
16A#LL	ff	16c#LL	ff	2.r	ff	2.r	ff	i	=116	a#	M6/8
16G#	ff	16B	ff	2.r	ff	2.r	ff	i	=116	a#	M6/8
16F#	ff	16A#	ff	2.r	ff	2.r	ff	i	=116	a#	M6/8
16G#	ff	16B	ff	2.r	ff	2.r	ff	i	=116	a#	M6/8
16F#	ff	16A#	ff	2.r	ff	2.r	ff	i	=116	a#	M6/8
16E#JJ	ff	16G#JJ	ff	2.r	ff	2.r	ff	i	=116	a#	M6/8
16D#LL	ff	16F#LL	ff	2.r	ff	2.r	ff	i	=116	a#	M6/8
16E#	ff	16G#	ff	2.r	ff	2.r	ff	i	=116	a#	M6/8
16F#	ff	16A#	ff	2.r	ff	2.r	ff	i	=116	a#	M6/8
16E#	ff	16G#	ff	2.r	ff	2.r	ff	i	=116	a#	M6/8
16D#	ff	16F#	ff	2.r	ff	2.r	ff	i	=116	a#	M6/8
16E#JJ	ff	16G#JJ	ff	2.r	ff	2.r	ff	i	=116	a#	M6/8
=117	=117	=117	=117	=117	=117	=117	=117	=117	=117	=117	=117
[2.D#	pp	(4.F#	pp	4r	ff	8.r	ff	i[i	=117	a#	M6/8
[2.D#	pp	(4.F#	pp	4r	ff	(16dd#LL	pp	i[i	=117	a#	M6/8
[2.D#	pp	(4.F#	pp	(8a#	pp	16ff#	pp	i[i	=117	a#	M6/8
[2.D#	pp	(4.F#	pp	(8a#	pp	16dd#JJ	pp	i[i	=117	a#	M6/8
[2.D#	pp	4G#	pp	8.bL	pp	[4.cc##X)	pp	#viio43	=117	a#	M6/8
[2.D#	pp	4G#	pp	16e#L	pp	[4.cc##X)	pp	#viio43	=117	a#	M6/8
[2.D#	pp	8B)	pp	16g#	pp	[4.cc##X)	pp	#viio43	=117	a#	M6/8
[2.D#	pp	8B)	pp	16f#JJ)	pp	[4.cc##X)	pp	#viio43	=117	a#	M6/8
=118	=118	=118	=118	=118	=118	=118	=118	=118	=118	=118	=118
2.D#]	pp	(4A#	pp	(4f#	pp	(16cc##LL]	pp	i64	=118	a#	M6/8
2.D#]	pp	(4A#	pp	(4f#	pp	16dd#	pp	i64	=118	a#	M6/8
2.D#]	pp	(4A#	pp	(4f#	pp	16ee#	pp	i64	=118	a#	M6/8
2.D#]	pp	(4A#	pp	(4f#	pp	16dd#	pp	i64	=118	a#	M6/8
2.D#]	pp	8F#	pp	8a#	pp	16ff#	pp	i64	=118	a#	M6/8
2.D#]	pp	8F#	pp	8a#	pp	16dd#JJ	pp	i64	=118	a#	M6/8
2.D#]	pp	4G#	pp	8.bL	pp	4.cc##X)	pp	#viio43	=118	a#	M6/8
2.D#]	pp	4G#	pp	16e#L	pp	4.cc##X)	pp	#viio43	=118	a#	M6/8
2.D#]	pp	16BLL	pp	16g#	pp	4.cc##X)	pp	#viio43	=118	a#	M6/8
2.D#]	pp	16A#JJ)	pp	16f#JJ)	pp	4.cc##X)	pp	#viio43	=118	a#	M6/8
=119	=119	=119	=119	=119	=119	=119	=119	=119	=119	=119	=119
4D#	pp	4A#	pp	4f#	pp	(16dd#LL	pp	i]	=119	a#	M6/8
4D#	pp	4A#	pp	4f#	pp	16cc##X	pp	i]	=119	a#	M6/8
4D#	pp	4A#	pp	4f#	pp	16dd#	pp	i]	=119	a#	M6/8
4D#	pp	4A#	pp	4f#	pp	16ee#	pp	i]	=119	a#	M6/8
8r	pp	8r	pp	8r	pp	16ff#	pp	i]	=119	a#	M6/8
8r	pp	8r	pp	8r	pp	16a#JJ	pp	i]	=119	a#	M6/8
4GG#	pp	8d#	pp	8g#	pp	16bLL	pp	vii.i	=119	a#	M6/8
4GG#	pp	8d#	pp	8g#	pp	16cc#	pp	vii.i	=119	a#	M6/8
4GG#	pp	16r	pp	8r	pp	16dd#JJ)	pp	vii.i	=119	a#	M6/8
4GG#	pp	(16f##XLL	pp	8r	pp	16r	pp	vii.i	=119	a#	M6/8
8r	pp	16g#	pp	8r	pp	8r	pp	vii.i	=119	a#	M6/8
8r	pp	16a#JJ	pp	8r	pp	8r	pp	vii.i	=119	a#	M6/8
=120	=120	=120	=120	=120	=120	=120	=120	=120	=120	=120	=120
2.r	pp	16bLL	p	2.r	pp	16r	pp	i6	=120	a#	M6/8
2.r	pp	16d#	p	2.r	pp	(16dd#LL	p	i6	=120	a#	M6/8
2.r	pp	16eX	p	2.r	pp	16eeX	p	i6	=120	a#	M6/8
2.r	pp	16f#	p	2.r	pp	16ff#	p	i6	=120	a#	M6/8
2.r	pp	16g#	p	2.r	pp	16gg#	p	i6	=120	a#	M6/8
2.r	pp	16BJJ	p	2.r	pp	16bJJ	p	i6	=120	a#	M6/8
2.r	pp	16c#LL	p	2.r	pp	16cc#LL	p	iv	=120	a#	M6/8
2.r	pp	16d#	p	2.r	pp	16dd#	p	iv	=120	a#	M6/8
2.r	pp	16e	p	2.r	pp	16ee	p	iv	=120	a#	M6/8
2.r	pp	16f#	p	2.r	pp	16ff#	p	iv	=120	a#	M6/8
2.r	pp	16g#	p	2.r	pp	16gg#	p	iv	=120	a#	M6/8
2.r	pp	16aXJJ	p	2.r	pp	16aaXJJ	p	iv	=120	a#	M6/8
=121	=121	=121	=121	=121	=121	=121	=121	=121	=121	=121	=121
2.r	pp	16bLL	p	2.r	pp	16bbLL	p	iv	=121	a#	M6/8
2.r	pp	16a#	p	2.r	pp	16aa#	p	iv	=121	a#	M6/8
2.r	pp	16cc#	p	2.r	pp	16ccc#	p	iv.vii%7/bII	=121	a#	M6/8
2.r	pp	16b	p	2.r	pp	16bb	p	iv.vii%7/bII	=121	a#	M6/8
2.r	pp	16aX	p	2.r	pp	16aaX	p	iv.vii%7/bII	=121	a#	M6/8
2.r	pp	16g#JJ	p	2.r	pp	16gg#JJ	p	iv.vii%7/bII	=121	a#	M6/8
2.r	pp	16f#LL	p	2.r	pp	16ff#LL	p	iv.vii%7/bII	=121	a#	M6/8
2.r	pp	16eX	p	2.r	pp	16eeX	p	iv.vii%7/bII	=121	a#	M6/8
2.r	pp	16d#	p	2.r	pp	16dd#	p	iv.vii%7/bII	=121	a#	M6/8
2.r	pp	16e	p	2.r	pp	16ee	p	.bII6	=121	a#	M6/8
2.r	pp	16g#	p	2.r	pp	16gg#	p	.bII6	=121	a#	M6/8
2.r	pp	16bJJ)	p	2.r	pp	16bbJJ)	p	.bII6	=121	a#	M6/8
=122	=122	=122	=122	=122	=122	=122	=122	=122	=122	=122	=122
8r	pp	(8b	p	8r	pp	(8bb	p	.bII6	=122	a#	M6/8
8G##XL	pp	[4f#)	p	8b#XL	pp	[4dd#)	p	#viio7/V	=122	a#	M6/8
8G##J	pp	[4f#)	p	8b#J	pp	[4dd#)	p	#viio7/V	=122	a#	M6/8
8A#L	pp	(8f#L]	p	(8a#L	pp	(8dd#L]	p	V(64)	=122	a#	M6/8
8A#	pp	8a#)	p	8dd#	pp	8ff#	p	V(64)	=122	a#	M6/8
8A#J	pp	8a#J	p	8cc##XJ)	pp	8ee#J)	p	V	=122	a#	M6/8
=123	=123	=123	=123	=123	=123	=123	=123	=123	=123	=123	=123
8.d#L	<	(4a#	<	(4dd#	<	(4.ff#	<	i\\	=123	a#	M6/8
(16d#L	<	(4a#	<	(4dd#	<	(4.ff#	<	i\\	=123	a#	M6/8
16f#	<	8g##X	<	8b#X	<	(4.ff#	<	i\\	=123	a#	M6/8
16d#JJ)	<	8g##X	<	8b#X	<	(4.ff#	<	i\\	=123	a#	M6/8
[4.c##X	[ > ]]	4.g#)	[ > ]]	4b	[ >	4.ee#)	[ > ]]	V65	=123	a#	M6/8
[4.c##X	[ > ]]	4.g#)	[ > ]]	8a#)	]]	4.ee#)	[ > ]]	V65	=123	a#	M6/8
=124	=124	=124	=124	=124	=124	=124	=124	=124	=124	=124	=124
(16c##LL]	<	(4f#	<	(4a#	<	[4.ff#	<	i	=124	a#	M6/8
16d#	<	(4f#	<	(4a#	<	[4.ff#	<	i	=124	a#	M6/8
16e#	<	(4f#	<	(4a#	<	[4.ff#	<	i	=124	a#	M6/8
16d#	<	(4f#	<	(4a#	<	[4.ff#	<	i	=124	a#	M6/8
16f#	<	8g##X	<	8b#X	<	[4.ff#	<	i	=124	a#	M6/8
16d#JJ)	<	8g##X	<	8b#X	<	[4.ff#	<	i	=124	a#	M6/8
[4.c##X	[ > ]]	4.g#)	[ > ]]	4b	[ >	(16ff#LL]	[ >	V65(2)	=124	a#	M6/8
[4.c##X	[ > ]]	4.g#)	[ > ]]	4b	[ >	16ee#	[ >	V65(2)	=124	a#	M6/8
[4.c##X	[ > ]]	4.g#)	[ > ]]	4b	[ >	16ff#	[ >	V65(2)	=124	a#	M6/8
[4.c##X	[ > ]]	4.g#)	[ > ]]	4b	[ >	16ee#	[ >	V65(2)	=124	a#	M6/8
[4.c##X	[ > ]]	4.g#)	[ > ]]	8a#)	]]	16gg#	[ >	V65	=124	a#	M6/8
[4.c##X	[ > ]]	4.g#)	[ > ]]	8a#)	]]	16ee#JJ)	]]	V65	=124	a#	M6/8
=125	=125	=125	=125	=125	=125	=125	=125	=125	=125	=125	=125
16c##LL]	[ > ]]	4f#	[ > ]]	4a#	]]	4ff#	]]	i	=125	a#	M6/8
(16c##X	[ > ]]	4f#	[ > ]]	4a#	]]	4ff#	]]	i	=125	a#	M6/8
16d#	[ > ]]	4f#	[ > ]]	4a#	]]	4ff#	]]	i	=125	a#	M6/8
16e#	[ > ]]	4f#	[ > ]]	4a#	]]	4ff#	]]	i	=125	a#	M6/8
16f#	[ > ]]	8r	[ > ]]	8r	]]	8r	]]	i	=125	a#	M6/8
16A#JJ	[ > ]]	8r	[ > ]]	8r	]]	8r	]]	i	=125	a#	M6/8
16BLL	[ > ]]	8.r	[ > ]]	4r	]]	4r	]]	VI	=125	a#	M6/8
16c#	[ > ]]	8.r	[ > ]]	4r	]]	4r	]]	VI	=125	a#	M6/8
16d#	[ > ]]	8.r	[ > ]]	4r	]]	4r	]]	VI	=125	a#	M6/8
16F##X	[ > ]]	(16f##XLL	[ > ]]	4r	]]	4r	]]	VI	=125	a#	M6/8
16G#	[ > ]]	16g#	[ > ]]	8r	]]	8r	]]	V6/iv	=125	a#	M6/8
16A#JJ	[ > ]]	16a#JJ	[ > ]]	8r	]]	8r	]]	V6/iv	=125	a#	M6/8
=126	=126	=126	=126	=126	=126	=126	=126	=126	=126	=126	=126
16BLL	[ > ]]	(16bLL)	[ > ]]	4r	]]	4r	]]	iv	=126	a#	M6/8
16D#	[ > ]]	16d#	[ > ]]	4r	]]	4r	]]	iv	=126	a#	M6/8
16EX	[ > ]]	16eX	[ > ]]	4r	]]	4r	]]	iv	=126	a#	M6/8
16F#	[ > ]]	16f#	[ > ]]	4r	]]	4r	]]	iv	=126	a#	M6/8
16G#	[ > ]]	16g#	[ > ]]	16r	]]	8r	]]	.bII	=126	a#	M6/8
16BBJJ	[ > ]]	16BJJ	[ > ]]	(16b	]]	8r	]]	.bII	=126	a#	M6/8
16C#LL	[ > ]]	16c#LL	[ > ]]	16cc#LL	]]	8.r	]]	.bII	=126	a#	M6/8
16D#	[ > ]]	16d#	[ > ]]	16dd#	]]	8.r	]]	.bII	=126	a#	M6/8
16E	[ > ]]	16e	[ > ]]	16eeX	]]	8.r	]]	.bII	=126	a#	M6/8
16BB	[ > ]]	16B	[ > ]]	16b	]]	(16bbLL	]]	.bII	=126	a#	M6/8
16C#	[ > ]]	16c#	[ > ]]	16cc#	]]	16ccc#	]]	.bII	=126	a#	M6/8
16D#JJ	[ > ]]	16d#JJ	[ > ]]	16dd#JJ	]]	16ddd#JJ	]]	.bII	=126	a#	M6/8
=127	=127	=127	=127	=127	=127	=127	=127	=127	=127	=127	=127
16EXLL	[ > ]]	16eXLL	[ > ]]	16eeXLL	]]	16eeeXLL	]]	.bII	=127	a#	M6/8
16BB	[ > ]]	16B	[ > ]]	16b	]]	16bb	]]	.bII	=127	a#	M6/8
16C#	[ > ]]	16c#	[ > ]]	16cc#	]]	16ccc#	]]	.bII	=127	a#	M6/8
16D#	[ > ]]	16d#	[ > ]]	16dd#	]]	16ddd#	]]	.bII	=127	a#	M6/8
16E	[ > ]]	16e	[ > ]]	16ee	]]	16eee	]]	.bII	=127	a#	M6/8
16BBJJ)	[ > ]]	16BJJ)	[ > ]]	16bJJ)	]]	16bbJJ)	]]	.bII	=127	a#	M6/8
(16C#LL	[ > ]]	(16c#LL	[ > ]]	(16cc#LL	]]	(16ccc#LL	]]	.bII	=127	a#	M6/8
16D#	[ > ]]	16d#	[ > ]]	16dd#	]]	16ddd#	]]	.bII	=127	a#	M6/8
16E	[ > ]]	16e	[ > ]]	16ee	]]	16eee	]]	.bII	=127	a#	M6/8
16BB	[ > ]]	16B	[ > ]]	16b	]]	16bb	]]	.bII	=127	a#	M6/8
16C#	[ > ]]	16c#	[ > ]]	16cc#	]]	16ccc#	]]	.bII	=127	a#	M6/8
16D#JJ)	[ > ]]	16d#JJ)	[ > ]]	16dd#JJ)	]]	16ddd#JJ)	]]	.bII	=127	a#	M6/8
=128	=128	=128	=128	=128	=128	=128	=128	=128	=128	=128	=128
(16EXLL	[ > ]]	(16eXLL	[ > ]]	(16eeXLL	]]	(16eeeXLL	]]	.bII	=128	a#	M6/8
16BB	[ > ]]	16B	[ > ]]	16b	]]	16bb	]]	.bII	=128	a#	M6/8
16C#	[ > ]]	16c#	[ > ]]	16cc#	]]	16ccc#	]]	.bII	=128	a#	M6/8
16D#	[ > ]]	16d#	[ > ]]	16dd#	]]	16ddd#	]]	.bII	=128	a#	M6/8
16E	[ > ]]	16e	[ > ]]	16ee	]]	16eee	]]	.bII	=128	a#	M6/8
16BBJJ)	[ > ]]	16BJJ)	[ > ]]	16bJJ)	]]	16bbJJ)	]]	.bII	=128	a#	M6/8
(16C#LL	[ > ]]	(16c#LL	[ > ]]	(16cc#LL	]]	(16ccc#LL	]]	.bII	=128	a#	M6/8
16D#	[ > ]]	16d#	[ > ]]	16dd#	]]	16ddd#	]]	.bII	=128	a#	M6/8
16E	[ > ]]	16e	[ > ]]	16ee	]]	16eee	]]	.bII	=128	a#	M6/8
16BB	[ > ]]	16B	[ > ]]	16b	]]	16bb	]]	.bII	=128	a#	M6/8
16C#	[ > ]]	16c#	[ > ]]	16cc#	]]	16ccc#	]]	.bII	=128	a#	M6/8
16D#JJ)	[ > ]]	16d#JJ)	[ > ]]	16dd#JJ)	]]	16ddd#JJ)	]]	.bII	=128	a#	M6/8
=129	=129	=129	=129	=129	=129	=129	=129	=129	=129	=129	=129
16EXLL	ff	16eXLL	ff	16eeXLL	ff	[4.eeeX	ff	VI.V7/bIII	=129	a#	M6/8
16E	ff	16B	ff	16g#	ff	[4.eeeX	ff	VI.V7/bIII	=129	a#	M6/8
16E	ff	16B	ff	16g#	ff	[4.eeeX	ff	VI.V7/bIII	=129	a#	M6/8
16E	ff	16B	ff	16g#	ff	[4.eeeX	ff	VI.V7/bIII	=129	a#	M6/8
16E	ff	16B	ff	16g#	ff	[4.eeeX	ff	VI.V7/bIII	=129	a#	M6/8
16EJJ	ff	16BJJ	ff	16g#JJ	ff	[4.eeeX	ff	VI.V7/bIII	=129	a#	M6/8
16ELL	ff	16BLL	ff	16g#LL	ff	4eee]	ff	VI.V7/bIII	=129	a#	M6/8
16E	ff	16B	ff	16g#	ff	4eee]	ff	VI.V7/bIII	=129	a#	M6/8
16E	ff	16B	ff	16g#	ff	4eee]	ff	VI.V7/bIII	=129	a#	M6/8
16E	ff	16B	ff	16g#	ff	4eee]	ff	VI.V7/bIII	=129	a#	M6/8
16E	ff	16B	ff	16g#	ff	8dXt	ff	VI.V7/bIII	=129	a#	M6/8
16EJJ	ff	16BJJ	ff	16g#JJ	ff	8dXt	ff	VI.V7/bIII	=129	a#	M6/8
=130	=130	=130	=130	=130	=130	=130	=130	=130	=130	=130	=130
4E#	ff	[4.gg#	sf	[4.bb	sf	(16c#LL	ff	V65	=130	a#	M6/8
4E#	ff	[4.gg#	sf	[4.bb	sf	16e#	ff	V65	=130	a#	M6/8
4E#	ff	[4.gg#	sf	[4.bb	sf	16g#	ff	V65	=130	a#	M6/8
4E#	ff	[4.gg#	sf	[4.bb	sf	16e#	ff	V65	=130	a#	M6/8
8r	ff	[4.gg#	sf	[4.bb	sf	16cc#	ff	V65	=130	a#	M6/8
8r	ff	[4.gg#	sf	[4.bb	sf	16g#JJ)	ff	V65	=130	a#	M6/8
4r	ff	4gg#]	sf	4bb]	sf	(16ee#LL	ff	V65	=130	a#	M6/8
4r	ff	4gg#]	sf	4bb]	sf	16cc#	ff	V65	=130	a#	M6/8
4r	ff	4gg#]	sf	4bb]	sf	16gg#	ff	V65	=130	a#	M6/8
4r	ff	4gg#]	sf	4bb]	sf	16ee#)	ff	V65	=130	a#	M6/8
16C#LL	ff	8g#T	sf	8bT	sf	16ccc#'	ff	V65	=130	a#	M6/8
16C#JJ	ff	8g#T	sf	8bT	sf	16ccc#'JJ	ff	V65	=130	a#	M6/8
=131	=131	=131	=131	=131	=131	=131	=131	=131	=131	=131	=131
16FF#LL	ff	16f#LL	sf	16a#LL	sf	[4.fff#	sf	I	=131	a#	M6/8
16F#	ff	16A# 16c#	sf	16a#	sf	[4.fff#	sf	I	=131	a#	M6/8
16F#	ff	16A# 16c#	sf	16a#	sf	[4.fff#	sf	I	=131	a#	M6/8
16F#	ff	16A# 16c#	sf	16a#	sf	[4.fff#	sf	I	=131	a#	M6/8
16F#	ff	16A# 16c#	sf	16a#	sf	[4.fff#	sf	I	=131	a#	M6/8
16F#JJ	ff	16A#JJ 16c#	sf	16a#JJ	sf	[4.fff#	sf	I	=131	a#	M6/8
16F#LL	ff	16A#LL 16c#	sf	16a#LL	sf	4fff#]	sf	I	=131	a#	M6/8
16F#	ff	16A# 16c#	sf	16a#	sf	4fff#]	sf	I	=131	a#	M6/8
16F#	ff	16A# 16c#	sf	16a#	sf	4fff#]	sf	I	=131	a#	M6/8
16F#	ff	16A# 16c#	sf	16a#	sf	4fff#]	sf	I	=131	a#	M6/8
16F#	ff	16A# 16c#	sf	16a#	sf	8eXT	sf	V7/IV	=131	a#	M6/8
16F#JJ	ff	16A#JJ 16c#	sf	16a#JJ	sf	8eXT	sf	V7/IV	=131	a#	M6/8
=132	=132	=132	=132	=132	=132	=132	=132	=132	=132	=132	=132
4F##X	ff	[4.aa#	sf	[4.ccc#	sf	(16d#LL	sf	V65/ii	=132	a#	M6/8
4F##X	ff	[4.aa#	sf	[4.ccc#	sf	16f##X	sf	V65/ii	=132	a#	M6/8
4F##X	ff	[4.aa#	sf	[4.ccc#	sf	16a#	sf	V65/ii	=132	a#	M6/8
4F##X	ff	[4.aa#	sf	[4.ccc#	sf	16f##	sf	V65/ii	=132	a#	M6/8
8r	ff	[4.aa#	sf	[4.ccc#	sf	16dd#	sf	V65/ii	=132	a#	M6/8
8r	ff	[4.aa#	sf	[4.ccc#	sf	16a#JJ)	sf	V65/ii	=132	a#	M6/8
4r	ff	4aa#]	sf	4ccc#]	sf	(16ff##XLL	sf	V65/ii	=132	a#	M6/8
4r	ff	4aa#]	sf	4ccc#]	sf	16dd#	sf	V65/ii	=132	a#	M6/8
4r	ff	4aa#]	sf	4ccc#]	sf	16aa#	sf	V65/ii	=132	a#	M6/8
4r	ff	4aa#]	sf	4ccc#]	sf	16ff##)	sf	V65/ii	=132	a#	M6/8
16D#LL	ff	8a#T	sf	8cc#T	sf	16ddd#'	sf	V65/ii	=132	a#	M6/8
16D#JJ	ff	8a#T	sf	8cc#T	sf	16ddd#'JJ	sf	V65/ii	=132	a#	M6/8
16D#JJ	ff	8a#T	sf	16qqb/LL	sf	16ddd#'JJ	sf	V65/ii	=132	a#	M6/8
16D#JJ	ff	8a#T	sf	16qqcc#/JJ	sf	16ddd#'JJ	sf	V65/ii	=132	a#	M6/8
=133	=133	=133	=133	=133	=133	=133	=133	=133	=133	=133	=133
16GG#LL	ff	16g#LL	sf	16bLL	sf	[4.ggg#	sf	ii	=133	a#	M6/8
16G#	ff	16B 16d#	sf	16b	sf	[4.ggg#	sf	ii	=133	a#	M6/8
16G#	ff	16B 16d#	sf	16b	sf	[4.ggg#	sf	ii	=133	a#	M6/8
16G#	ff	16B 16d#	sf	16b	sf	[4.ggg#	sf	ii	=133	a#	M6/8
16G#	ff	16B 16d#	sf	16b	sf	[4.ggg#	sf	ii	=133	a#	M6/8
16G#JJ	ff	16BJJ 16d#	sf	16bJJ	sf	[4.ggg#	sf	ii	=133	a#	M6/8
16G#LL	ff	16BLL 16d#	sf	16bLL	sf	4ggg#]	sf	ii	=133	a#	M6/8
16G#	ff	16B 16d#	sf	16b	sf	4ggg#]	sf	ii	=133	a#	M6/8
16G#	ff	16B 16d#	sf	16b	sf	4ggg#]	sf	ii	=133	a#	M6/8
16G#	ff	16B 16d#	sf	16b	sf	4ggg#]	sf	ii	=133	a#	M6/8
16G#	ff	16B 16d#	sf	16b	sf	8f#T	sf	ii7	=133	a#	M6/8
16G#JJ	ff	16BJJ 16d#	sf	16bJJ	sf	8f#T	sf	ii7	=133	a#	M6/8
=134	=134	=134	=134	=134	=134	=134	=134	=134	=134	=134	=134
4G##X	ff	[4.b#X	sf	[4.ddd#	sf	(16e#LL	sf	i.V65	=134	a#	M6/8
4G##X	ff	[4.b#X	sf	[4.ddd#	sf	16g##X	sf	i.V65	=134	a#	M6/8
4G##X	ff	[4.b#X	sf	[4.ddd#	sf	16b#X	sf	i.V65	=134	a#	M6/8
4G##X	ff	[4.b#X	sf	[4.ddd#	sf	16g##	sf	i.V65	=134	a#	M6/8
8r	ff	[4.b#X	sf	[4.ddd#	sf	16ee#	sf	i.V65	=134	a#	M6/8
8r	ff	[4.b#X	sf	[4.ddd#	sf	16b#JJ)	sf	i.V65	=134	a#	M6/8
4r	ff	4b#]	sf	4ddd#]	sf	(16gg##XLL	sf	i.V65	=134	a#	M6/8
4r	ff	4b#]	sf	4ddd#]	sf	16ee#	sf	i.V65	=134	a#	M6/8
4r	ff	4b#]	sf	4ddd#]	sf	16bb#X	sf	i.V65	=134	a#	M6/8
4r	ff	4b#]	sf	4ddd#]	sf	16gg##)	sf	i.V65	=134	a#	M6/8
16E#LL	ff	8b#Xt	sf	8dd#T	sf	16eee#'	sf	i.V65	=134	a#	M6/8
16E#JJ	ff	8b#Xt	sf	8dd#T	sf	16eee#'JJ	sf	i.V65	=134	a#	M6/8
=135	=135	=135	=135	=135	=135	=135	=135	=135	=135	=135	=135
[4.A#	ff	8a#	ff	(8cc#	ff	[4.aaa#	ff	i	=135	a#	M6/8
[4.A#	ff	[4a#	sf	[4aa#)	sf	[4.aaa#	ff	i	=135	a#	M6/8
4A#]	ff	4a#]	sf	4aa#]	sf	4aaa#]	ff	i	=135	a#	M6/8
(8G#T	ff	(8g#T	sf	(8gg#T	sf	(8ggg#T	ff	i2	=135	a#	M6/8
16qqF#/LL	ff	16qqf#/LL	sf	16qqff#/LL	sf	16qqfff#\LL	ff	i2	=135	a#	M6/8
16qqG#/JJ	ff	16qqg#/JJ	sf	16qqgg#/JJ	sf	16qqggg#\JJ	ff	i2	=135	a#	M6/8
=136	=136	=136	=136	=136	=136	=136	=136	=136	=136	=136	=136
8F#)	ff	8f#)	sf	8ff#)	sf	8fff#)	ff	VI	=136	a#	M6/8
8r	ff	8r	sf	8r	sf	8r	ff	VI	=136	a#	M6/8
(8E#t	ff	(8e#t	sf	(8ee#t	sf	(8eee#t	ff	@none	=136	a#	M6/8
16qqD#/LL	ff	16qqd#/LL	sf	16qqdd#\LL	sf	16qqddd#\LL	ff	@none	=136	a#	M6/8
16qqE#/JJ	ff	16qqe#/JJ	sf	16qqee#\JJ	sf	16qqeee#\JJ	ff	@none	=136	a#	M6/8
8D#)	ff	8d#)	sf	8dd#)	sf	8ddd#)	ff	@none	=136	a#	M6/8
8r	ff	8r	sf	8r	sf	8r	ff	@none	=136	a#	M6/8
(8C#T	ff	(8c#T	sf	(8cc#T	sf	(8ccc#T	ff	@none	=136	a#	M6/8
16qqBB#/LL	ff	16qqB#/LL	sf	16qqb#/LL	sf	16qqbb#\LL	ff	@none	=136	a#	M6/8
16qqC#/JJ	ff	16qqc#/JJ	sf	16qqcc#/JJ	sf	16qqccc#\JJ	ff	@none	=136	a#	M6/8
=137	=137	=137	=137	=137	=137	=137	=137	=137	=137	=137	=137
[4.BB#)	sf	[4.B#)	sf	[4.b#)	sf	[4.bb#)	sf	ii	=137	a#	M6/8
4BB#]	sf	4B#]	sf	4b#]	sf	4bb#]	sf	ii	=137	a#	M6/8
(8AA#T	sf	(8A#T	sf	(8a#T	sf	(8aa#T	sf	ii	=137	a#	M6/8
16qqGG##X/LL	sf	16qqG##X/LL	sf	16qqg##X/LL	sf	16qqgg##X\LL	sf	ii	=137	a#	M6/8
16qqAA#/JJ	sf	16qqA#/JJ	sf	16qqa#/JJ	sf	16qqaa#\JJ	sf	ii	=137	a#	M6/8
=138	=138	=138	=138	=138	=138	=138	=138	=138	=138	=138	=138
8GG##X)	sf	8G##X)	sf	8g##X)	sf	8gg##X)	sf	#viio	=138	a#	M6/8
8r	sf	8r	sf	8r	sf	8r	sf	#viio	=138	a#	M6/8
(8GG##t	sf	(8G##t	sf	(8g##t	sf	(8gg##t	sf	#viio	=138	a#	M6/8
16qqFF##X/LL	sf	16qqF##X/LL	sf	16qqf##X/LL	sf	16qqff##X\LL	sf	i	=138	a#	M6/8
16qqGG##/JJ	sf	16qqG##/JJ	sf	16qqg##/JJ	sf	16qqgg##\JJ	sf	i	=138	a#	M6/8
8AA#)	sf	8A#)	sf	8a#)	sf	8aa#)	sf	i	=138	a#	M6/8
8r	sf	8r	sf	8r	sf	8r	sf	i	=138	a#	M6/8
(8D##Xt	sf	(8d##Xt	sf	(8d##Xt	sf	(8dd##Xt	sf	#viio/V	=138	a#	M6/8
	a#	M6/8
	a#	M6/8
	=139	=139
	a#	M6/8
	a#	M6/8
	a#	M6/8
	a#	M6/8
	a#	M6/8
	a#	M6/8
	a#	M6/8
	a#	M6/8
	a#	M6/8
	a#	M6/8
	=140	=140
	a#	M6/8
	a#	M6/8
	a#	M6/8
	a#	M6/8
	a#	M6/8
	a#	M6/8
	a#	M6/8
	a#	M6/8
	a#	M6/8
	a#	M6/8
	=141	=141
	!	!
	a#	M6/8
	a#	M6/8
	a#	M6/8
	a#	M6/8
	a#	M6/8
	a#	M6/8
	a#	M6/8
	a#	M6/8
	a#	M6/8
	a#	M6/8
	a#	M6/8
	a#	M6/8
	=142	=142
	a#	M6/8
	a#	M6/8
	a#	M6/8
	a#	M6/8
	a#	M6/8
	a#	M6/8
	a#	M6/8
	a#	M6/8
	a#	M6/8
	a#	M6/8
	a#	M6/8
	a#	M6/8
	=143	=143
	a#	M6/8
	a#	M6/8
	a#	M6/8
	a#	M6/8
	a#	M6/8
	a#	M6/8
	a#	M6/8
	a#	M6/8
	a#	M6/8
	a#	M6/8
	a#	M6/8
	a#	M6/8
	=144	=144
	a#	M6/8
	a#	M6/8
	a#	M6/8
	a#	M6/8
	a#	M6/8
	a#	M6/8
	a#	M6/8
	a#	M6/8
	a#	M6/8
	a#	M6/8
	a#	M6/8
	a#	M6/8
	=145	=145
	a#	M6/8
	a#	M6/8
	a#	M6/8
	a#	M6/8
	=146	=146
	a#	M6/8
	a#	M6/8
	a#	M6/8
	a#	M6/8
	a#	M6/8
	a#	M6/8
	a#	M6/8
	a#	M6/8
	=147	=147
	a#	M6/8
	=148	=148
	a#	M6/8
	a#	M6/8
	a#	M6/8
	a#	M6/8
	=149	=149
	a#	M6/8
	a#	M6/8
	a#	M6/8
	a#	M6/8
	a#	M6/8
	a#	M6/8
	a#	M6/8
	a#	M6/8
	a#	M6/8
	a#	M6/8
	a#	M6/8
	a#	M6/8
	=150	=150
	a#	M6/8
	a#	M6/8
	a#	M6/8
	a#	M6/8
	=151	=151
	a#	M6/8
	a#	M6/8
	a#	M6/8
	a#	M6/8
	a#	M6/8
	a#	M6/8
	=152	=152
	a#	M6/8
	a#	M6/8
	=153	=153
	!	!
	a#	M6/8
	a#	M6/8
	!	!
	a#	M6/8
	a#	M6/8
	a#	M6/8
	a#	M6/8
	=154	=154
	!	!
	a#	M6/8
	a#	M6/8
	=155	=155
	a#	M6/8
	a#	M6/8
	a#	M6/8
	a#	M6/8
	a#	M6/8
	a#	M6/8
	a#	M6/8
	a#	M6/8
	a#	M6/8
	=156	=156
	a#	M6/8
	a#	M6/8
	a#	M6/8
	a#	M6/8
	a#	M6/8
	a#	M6/8
	a#	M6/8
	a#	M6/8
	a#	M6/8
	a#	M6/8
	a#	M6/8
	a#	M6/8
	=157	=157
	!LO:TX:b:i:t=sempre	!LO:TX:b:i:t=sempre
	a#	M6/8
	a#	M6/8
	a#	M6/8
	a#	M6/8
	a#	M6/8
	a#	M6/8
	a#	M6/8
	a#	M6/8
	a#	M6/8
	a#	M6/8
	a#	M6/8
	a#	M6/8
	=158	=158
	a#	M6/8
	a#	M6/8
	a#	M6/8
	a#	M6/8
	a#	M6/8
	a#	M6/8
	a#	M6/8
	a#	M6/8
	a#	M6/8
	a#	M6/8
	a#	M6/8
	a#	M6/8
	=159	=159
	a#	M6/8
	a#	M6/8
	a#	M6/8
	a#	M6/8
	a#	M6/8
	a#	M6/8
	a#	M6/8
	a#	M6/8
	a#	M6/8
	a#	M6/8
	a#	M6/8
	a#	M6/8
	=160	=160
	a#	M6/8
	a#	M6/8
	a#	M6/8
	a#	M6/8
	a#	M6/8
	a#	M6/8
	a#	M6/8
	a#	M6/8
	a#	M6/8
	a#	M6/8
	a#	M6/8
	a#	M6/8
	=161	=161
	a#	M6/8
	!LO:TX:b:i:t=cresc.	!LO:TX:b:i:t=cresc.
	a#	M6/8
	a#	M6/8
	a#	M6/8
	a#	M6/8
	!	!
	a#	M6/8
	a#	M6/8
	a#	M6/8
	a#	M6/8
	a#	M6/8
	a#	M6/8
	a#	M6/8
	=162	=162
	a#	M6/8
	a#	M6/8
	a#	M6/8
	a#	M6/8
	a#	M6/8
	a#	M6/8
	a#	M6/8
	a#	M6/8
	a#	M6/8
	a#	M6/8
	a#	M6/8
	a#	M6/8
	=163	=163
	a#	M6/8
	a#	M6/8
	a#	M6/8
	a#	M6/8
	a#	M6/8
	a#	M6/8
	a#	M6/8
	a#	M6/8
	a#	M6/8
	a#	M6/8
	a#	M6/8
	a#	M6/8
	=164	=164
	a#	M6/8
	a#	M6/8
	a#	M6/8
	a#	M6/8
	a#	M6/8
	a#	M6/8
	a#	M6/8
	a#	M6/8
	a#	M6/8
	a#	M6/8
	a#	M6/8
	a#	M6/8
	a#	M6/8
	a#	M6/8
	=165	=165
	a#	M6/8
	a#	M6/8
	a#	M6/8
	a#	M6/8
	a#	M6/8
	a#	M6/8
	a#	M6/8
	a#	M6/8
	a#	M6/8
	a#	M6/8
	a#	M6/8
	a#	M6/8
	=166	=166
	a#	M6/8
	a#	M6/8
	a#	M6/8
	a#	M6/8
	a#	M6/8
	a#	M6/8
	a#	M6/8
	a#	M6/8
	a#	M6/8
	a#	M6/8
	!	!
	a#	M6/8
	a#	M6/8
	a#	M6/8
	a#	M6/8
	=167	=167
	a#	M6/8
	a#	M6/8
	a#	M6/8
	a#	M6/8
	a#	M6/8
	a#	M6/8
	a#	M6/8
	a#	M6/8
	a#	M6/8
	a#	M6/8
	a#	M6/8
	a#	M6/8
	=168	=168
	a#	M6/8
	a#	M6/8
	a#	M6/8
	a#	M6/8
	a#	M6/8
	a#	M6/8
	a#	M6/8
	a#	M6/8
	a#	M6/8
	a#	M6/8
	a#	M6/8
	a#	M6/8
	=169	=169
	a#	M6/8
	a#	M6/8
	a#	M6/8
	a#	M6/8
	a#	M6/8
	a#	M6/8
	a#	M6/8
	a#	M6/8
	a#	M6/8
	a#	M6/8
	a#	M6/8
	a#	M6/8
	=170	=170
	a#	M6/8
	a#	M6/8
	a#	M6/8
	a#	M6/8
	a#	M6/8
	a#	M6/8
	a#	M6/8
	a#	M6/8
	a#	M6/8
	a#	M6/8
	a#	M6/8
	a#	M6/8
	=171	=171
	a#	M6/8
	a#	M6/8
	a#	M6/8
	a#	M6/8
	a#	M6/8
	a#	M6/8
	a#	M6/8
	a#	M6/8
	a#	M6/8
	a#	M6/8
	a#	M6/8
	a#	M6/8
	=172	=172
	a#	M6/8
	a#	M6/8
	a#	M6/8
	a#	M6/8
	a#	M6/8
	a#	M6/8
	a#	M6/8
	a#	M6/8
	a#	M6/8
	a#	M6/8
	a#	M6/8
	a#	M6/8
	=173	=173
	a#	M6/8
	a#	M6/8
	a#	M6/8
	a#	M6/8
	a#	M6/8
	a#	M6/8
	a#	M6/8
	a#	M6/8
	a#	M6/8
	a#	M6/8
	a#	M6/8
	a#	M6/8
	=174	=174
	a#	M6/8
	a#	M6/8
	a#	M6/8
	a#	M6/8
	a#	M6/8
	a#	M6/8
	a#	M6/8
	a#	M6/8
	a#	M6/8
	a#	M6/8
	a#	M6/8
	a#	M6/8
	=175	=175
	a#	M6/8
	a#	M6/8
	a#	M6/8
	a#	M6/8
	a#	M6/8
	a#	M6/8
	a#	M6/8
	a#	M6/8
	a#	M6/8
	a#	M6/8
	a#	M6/8
	a#	M6/8
	=176	=176
	a#	M6/8
	a#	M6/8
	a#	M6/8
	a#	M6/8
	a#	M6/8
	a#	M6/8
	a#	M6/8
	a#	M6/8
	a#	M6/8
	a#	M6/8
	a#	M6/8
	a#	M6/8
	=177	=177
	a#	M6/8
	a#	M6/8
	a#	M6/8
	a#	M6/8
	a#	M6/8
	a#	M6/8
	a#	M6/8
	a#	M6/8
	a#	M6/8
	a#	M6/8
	a#	M6/8
	a#	M6/8
	=178	=178
	a#	M6/8
	a#	M6/8
	a#	M6/8
	a#	M6/8
	a#	M6/8
	a#	M6/8
	a#	M6/8
	a#	M6/8
	a#	M6/8
	a#	M6/8
	a#	M6/8
	a#	M6/8
	=179	=179
	a#	M6/8
	a#	M6/8
	a#	M6/8
	a#	M6/8
	a#	M6/8
	a#	M6/8
	a#	M6/8
	a#	M6/8
	a#	M6/8
	a#	M6/8
	a#	M6/8
	a#	M6/8
	=180	=180
	a#	M6/8
	a#	M6/8
	a#	M6/8
	a#	M6/8
	a#	M6/8
	a#	M6/8
	a#	M6/8
	a#	M6/8
	a#	M6/8
	a#	M6/8
	a#	M6/8
	a#	M6/8
	=181	=181
	a#	M6/8
	a#	M6/8
	a#	M6/8
	a#	M6/8
	a#	M6/8
	a#	M6/8
	a#	M6/8
	a#	M6/8
	a#	M6/8
	a#	M6/8
	a#	M6/8
	a#	M6/8
	=182	=182
	a#	M6/8
	a#	M6/8
	a#	M6/8
	a#	M6/8
	a#	M6/8
	a#	M6/8
	a#	M6/8
	a#	M6/8
	a#	M6/8
	a#	M6/8
	a#	M6/8
	a#	M6/8
	=183	=183
	a#	M6/8
	a#	M6/8
	a#	M6/8
	a#	M6/8
	a#	M6/8
	a#	M6/8
	a#	M6/8
	a#	M6/8
	a#	M6/8
	a#	M6/8
	a#	M6/8
	a#	M6/8
	=184	=184
	!LO:TX:a:i:t=cresc.	!LO:TX:a:i:t=cresc.
	a#	M6/8
	a#	M6/8
	a#	M6/8
	a#	M6/8
	a#	M6/8
	a#	M6/8
	a#	M6/8
	a#	M6/8
	a#	M6/8
	a#	M6/8
	a#	M6/8
	a#	M6/8
	=185	=185
	!LO:TX:b:i:t=dolce	!LO:TX:b:i:t=dolce
	a#	M6/8
	!	!
	a#	M6/8
	a#	M6/8
	a#	M6/8
	a#	M6/8
	a#	M6/8
	a#	M6/8
	a#	M6/8
	a#	M6/8
	a#	M6/8
	a#	M6/8
	=186	=186
	a#	M6/8
	a#	M6/8
	a#	M6/8
	a#	M6/8
	a#	M6/8
	a#	M6/8
	a#	M6/8
	a#	M6/8
	a#	M6/8
	a#	M6/8
	a#	M6/8
	a#	M6/8
	=187	=187
	a#	M6/8
	a#	M6/8
	a#	M6/8
	a#	M6/8
	a#	M6/8
	a#	M6/8
	a#	M6/8
	a#	M6/8
	a#	M6/8
	a#	M6/8
	a#	M6/8
	a#	M6/8
	=188	=188
	a#	M6/8
	a#	M6/8
	a#	M6/8
	a#	M6/8
	a#	M6/8
	a#	M6/8
	a#	M6/8
	a#	M6/8
	a#	M6/8
	a#	M6/8
	a#	M6/8
	a#	M6/8
	=189	=189
	a#	M6/8
	a#	M6/8
	a#	M6/8
	a#	M6/8
	a#	M6/8
	a#	M6/8
	a#	M6/8
	a#	M6/8
	a#	M6/8
	a#	M6/8
	a#	M6/8
	a#	M6/8
	=190	=190
	!LO:TX:b:i:t=cresc.	!LO:TX:b:i:t=cresc.
	a#	M6/8
	a#	M6/8
	a#	M6/8
	a#	M6/8
	a#	M6/8
	a#	M6/8
	=191	=191
	!	!
	a#	M6/8
	a#	M6/8
	a#	M6/8
	a#	M6/8
	a#	M6/8
	a#	M6/8
	a#	M6/8
	a#	M6/8
	=192	=192
	a#	M6/8
	a#	M6/8
	a#	M6/8
	a#	M6/8
	a#	M6/8
	a#	M6/8
	a#	M6/8
	a#	M6/8
	=193	=193
	a#	M6/8
	a#	M6/8
	a#	M6/8
	!LO:TX:b:i:t=dolce	!LO:TX:b:i:t=dolce
	a#	M6/8
	a#	M6/8
	=194	=194
	a#	M6/8
	a#	M6/8
	a#	M6/8
	a#	M6/8
	a#	M6/8
	a#	M6/8
	=195	=195
	a#	M6/8
	a#	M6/8
	a#	M6/8
	a#	M6/8
	a#	M6/8
	a#	M6/8
	a#	M6/8
	a#	M6/8
	=196	=196
	a#	M6/8
	a#	M6/8
	a#	M6/8
	a#	M6/8
	a#	M6/8
	a#	M6/8
	a#	M6/8
	a#	M6/8
	=197	=197
	a#	M6/8
	a#	M6/8
	a#	M6/8
	a#	M6/8
	a#	M6/8
	a#	M6/8
	a#	M6/8
	a#	M6/8
	a#	M6/8
	=198	=198
	a#	M6/8
	a#	M6/8
	a#	M6/8
	a#	M6/8
	=199	=199
	!	!
	a#	M6/8
	a#	M6/8
	a#	M6/8
	a#	M6/8
	a#	M6/8
	a#	M6/8
	a#	M6/8
	a#	M6/8
	a#	M6/8
	a#	M6/8
	a#	M6/8
	a#	M6/8
	=200	=200
	a#	M6/8
	a#	M6/8
	a#	M6/8
	a#	M6/8
	=201	=201
	a#	M6/8
	a#	M6/8
	a#	M6/8
	a#	M6/8
	a#	M6/8
	a#	M6/8
	=202	=202
	a#	M6/8
	a#	M6/8
	a#	M6/8
	a#	M6/8
	a#	M6/8
	a#	M6/8
	=203	=203
	!LO:TX:b:i:t=cresc.	!LO:TX:b:i:t=cresc.
	a#	M6/8
	a#	M6/8
	a#	M6/8
	a#	M6/8
	a#	M6/8
	a#	M6/8
	=204	=204
	a#	M6/8
	a#	M6/8
	a#	M6/8
	a#	M6/8
	a#	M6/8
	a#	M6/8
	=205	=205
	!LO:TX:a:i:t=piu	!LO:TX:a:i:t=piu
	a#	M6/8
	!LO:TX:b:i:t=cresc.	!LO:TX:b:i:t=cresc.
	a#	M6/8
	a#	M6/8
	a#	M6/8
	a#	M6/8
	a#	M6/8
	=206	=206
	a#	M6/8
	a#	M6/8
	a#	M6/8
	a#	M6/8
	a#	M6/8
	a#	M6/8
	=207	=207
	a#	M6/8
	a#	M6/8
	a#	M6/8
	a#	M6/8
	a#	M6/8
	a#	M6/8
	a#	M6/8
	a#	M6/8
	a#	M6/8
	a#	M6/8
	a#	M6/8
	a#	M6/8
	=208	=208
	a#	M6/8
	a#	M6/8
	a#	M6/8
	a#	M6/8
	a#	M6/8
	a#	M6/8
	a#	M6/8
	a#	M6/8
	a#	M6/8
	a#	M6/8
	a#	M6/8
	a#	M6/8
	=209	=209
	a#	M6/8
	a#	M6/8
	a#	M6/8
	a#	M6/8
	a#	M6/8
	a#	M6/8
	a#	M6/8
	a#	M6/8
	a#	M6/8
	a#	M6/8
	a#	M6/8
	a#	M6/8
	=210	=210
	a#	M6/8
	a#	M6/8
	a#	M6/8
	a#	M6/8
	a#	M6/8
	a#	M6/8
	a#	M6/8
	a#	M6/8
	a#	M6/8
	a#	M6/8
	a#	M6/8
	a#	M6/8
	=211	=211
	a#	M6/8
	a#	M6/8
	a#	M6/8
	a#	M6/8
	a#	M6/8
	a#	M6/8
	a#	M6/8
	a#	M6/8
	a#	M6/8
	a#	M6/8
	a#	M6/8
	a#	M6/8
	=212	=212
	a#	M6/8
	a#	M6/8
	a#	M6/8
	a#	M6/8
	a#	M6/8
	a#	M6/8
	a#	M6/8
	a#	M6/8
	a#	M6/8
	a#	M6/8
	a#	M6/8
	a#	M6/8
	=213	=213
	a#	M6/8
	a#	M6/8
	a#	M6/8
	a#	M6/8
	=214	=214
	a#	M6/8
	=215:|!	=215:|!
	a#	M6/8
	a#	M6/8
	a#	M6/8
	a#	M6/8
	a#	M6/8
	a#	M6/8
	a#	M6/8
	a#	M6/8
	a#	M6/8
	a#	M6/8
	a#	M6/8
	a#	M6/8
	=216	=216
	a#	M6/8
	a#	M6/8
	a#	M6/8
	a#	M6/8
	=217	=217
	a#	M6/8
	=218	=218
	a#	M6/8
	a#	M6/8
	a#	M6/8
	a#	M6/8
	=219	=219
	a#	M6/8
	=220	=220
	a#	M6/8
	a#	M6/8
	a#	M6/8
	a#	M6/8
	=221	=221
	a#	M6/8
	=222	=222
	a#	M6/8
	a#	M6/8
	a#	M6/8
	=223	=223
	a#	M6/8
	a#	M6/8
	=224	=224
	!	!
	a#	M6/8
	a#	M6/8
	a#	M6/8
	a#	M6/8
	=225	=225
	!LO:TX:b:i:t=sempre pi	!LO:TX:b:i:t=sempre pi
	a#	M6/8
	a#	M6/8
	a#	M6/8
	a#	M6/8
	=226	=226
	a#	M6/8
	a#	M6/8
	a#	M6/8
	a#	M6/8
	=227	=227
	a#	M6/8
	a#	M6/8
	a#	M6/8
	a#	M6/8
	=228	=228
	a#	M6/8
	a#	M6/8
	a#	M6/8
	a#	M6/8
	=229	=229
	a#	M6/8
	a#	M6/8
	a#	M6/8
	a#	M6/8
	a#	M6/8
	a#	M6/8
	=230	=230
	a#	M6/8
	a#	M6/8
	a#	M6/8
	a#	M6/8
	a#	M6/8
	a#	M6/8
	=231	=231
	a#	M6/8
	a#	M6/8
	a#	M6/8
	a#	M6/8
	a#	M6/8
	a#	M6/8
	=232	=232
	a#	M6/8
	a#	M6/8
	a#	M6/8
	a#	M6/8
	a#	M6/8
	a#	M6/8
	=233	=233
	a#	M6/8
	a#	M6/8
	a#	M6/8
	a#	M6/8
	a#	M6/8
	a#	M6/8
	=234	=234
	a#	M6/8
	a#	M6/8
	a#	M6/8
	a#	M6/8
	a#	M6/8
	a#	M6/8
	=235	=235
	a#	M6/8
	a#	M6/8
	a#	M6/8
	a#	M6/8
	a#	M6/8
	a#	M6/8
	=236	=236
	!LO:TX:b:i:t=cresc.	!LO:TX:b:i:t=cresc.
	a#	M6/8
	a#	M6/8
	a#	M6/8
	a#	M6/8
	a#	M6/8
	a#	M6/8
	=237	=237
	a#	M6/8
	a#	M6/8
	a#	M6/8
	a#	M6/8
	a#	M6/8
	a#	M6/8
	=238	=238
	a#	M6/8
	a#	M6/8
	a#	M6/8
	a#	M6/8
	a#	M6/8
	a#	M6/8
	=239	=239
	a#	M6/8
	a#	M6/8
	a#	M6/8
	a#	M6/8
	a#	M6/8
	a#	M6/8
	=240	=240
	a#	M6/8
	a#	M6/8
	a#	M6/8
	a#	M6/8
	a#	M6/8
	a#	M6/8
	=241	=241
	a#	M6/8
	a#	M6/8
	a#	M6/8
	a#	M6/8
	a#	M6/8
	a#	M6/8
	=242	=242
	a#	M6/8
	a#	M6/8
	a#	M6/8
	a#	M6/8
	a#	M6/8
	a#	M6/8
	=243	=243
	a#	M6/8
	a#	M6/8
	=244	=244
	a#	M6/8
	a#	M6/8
	=245	=245
	a#	M6/8
	=246	=246
	a#	M6/8
	a#	M6/8
	a#	M6/8
	a#	M6/8
	a#	M6/8
	a#	M6/8
	a#	M6/8
	a#	M6/8
	a#	M6/8
	a#	M6/8
	a#	M6/8
	a#	M6/8
	=247	=247
	a#	M6/8
	a#	M6/8
	a#	M6/8
	a#	M6/8
	a#	M6/8
	a#	M6/8
	a#	M6/8
	a#	M6/8
	a#	M6/8
	=248	=248
	a#	M6/8
	a#	M6/8
	a#	M6/8
	a#	M6/8
	a#	M6/8
	a#	M6/8
	a#	M6/8
	a#	M6/8
	a#	M6/8
	a#	M6/8
	a#	M6/8
	a#	M6/8
	=249	=249
	a#	M6/8
	a#	M6/8
	a#	M6/8
	a#	M6/8
	a#	M6/8
	a#	M6/8
	a#	M6/8
	a#	M6/8
	a#	M6/8
	a#	M6/8
	a#	M6/8
	a#	M6/8
	=250	=250
	a#	M6/8
	a#	M6/8
	a#	M6/8
	a#	M6/8
	a#	M6/8
	a#	M6/8
	a#	M6/8
	a#	M6/8
	a#	M6/8
	a#	M6/8
	a#	M6/8
	a#	M6/8
	=251	=251
	a#	M6/8
	a#	M6/8
	a#	M6/8
	a#	M6/8
	a#	M6/8
	a#	M6/8
	a#	M6/8
	a#	M6/8
	a#	M6/8
	a#	M6/8
	a#	M6/8
	a#	M6/8
	=252	=252
	!LO:TX:b:i:t=cresc.	!LO:TX:b:i:t=cresc.
	a#	M6/8
	a#	M6/8
	a#	M6/8
	a#	M6/8
	a#	M6/8
	a#	M6/8
	a#	M6/8
	a#	M6/8
	a#	M6/8
	a#	M6/8
	a#	M6/8
	a#	M6/8
	=253	=253
	a#	M6/8
	a#	M6/8
	a#	M6/8
	a#	M6/8
	a#	M6/8
	a#	M6/8
	a#	M6/8
	a#	M6/8
	a#	M6/8
	a#	M6/8
	a#	M6/8
	a#	M6/8
	=254	=254
	a#	M6/8
	a#	M6/8
	a#	M6/8
	a#	M6/8
	a#	M6/8
	a#	M6/8
	a#	M6/8
	a#	M6/8
	a#	M6/8
	a#	M6/8
	a#	M6/8
	a#	M6/8
	=255	=255
	a#	M6/8
	a#	M6/8
	a#	M6/8
	a#	M6/8
	a#	M6/8
	a#	M6/8
	a#	M6/8
	a#	M6/8
	a#	M6/8
	a#	M6/8
	a#	M6/8
	a#	M6/8
	=256	=256
	a#	M6/8
	a#	M6/8
	a#	M6/8
	a#	M6/8
	a#	M6/8
	a#	M6/8
	a#	M6/8
	a#	M6/8
	a#	M6/8
	a#	M6/8
	a#	M6/8
	a#	M6/8
	=257	=257
	a#	M6/8
	a#	M6/8
	a#	M6/8
	a#	M6/8
	=258	=258
	a#	M6/8
	a#	M6/8
	a#	M6/8
	a#	M6/8
	a#	M6/8
	a#	M6/8
	!LO:TX:b:i:t=dim.	!LO:TX:b:i:t=dim.
	a#	M6/8
	a#	M6/8
	a#	M6/8
	a#	M6/8
	a#	M6/8
	a#	M6/8
	=259	=259
	a#	M6/8
	a#	M6/8
	a#	M6/8
	a#	M6/8
	a#	M6/8
	a#	M6/8
	a#	M6/8
	a#	M6/8
	a#	M6/8
	a#	M6/8
	a#	M6/8
	a#	M6/8
	=260	=260
	a#	M6/8
	a#	M6/8
	a#	M6/8
	a#	M6/8
	=261	=261
	a#	M6/8
	a#	M6/8
	a#	M6/8
	a#	M6/8
	==	==
	*-	*-
	!!!system-decoration: [(s1,s2,s3,s4)]	!!!system-decoration: [(s1,s2,s3,s4)]
	!!!YEM: 	!!!YEM: 
